/* XPM */
static char *tilled_dirt_wide[] = {
/* columns rows colors chars-per-pixel */
"176 112 7 1 ",
"  c None",
". c #A4C263",
"X c #C0D470",
"o c #DCB98A",
"O c #E1C397",
"+ c #E8CFA6",
"@ c #EDDAB5",
/* pixels */
"                                                                                                                                                ++++++++++++o                   ",
"                                                                                                                                                ++++++++++++o                   ",
"                                                                                                                                                +++++++++++++o                  ",
"        oooooooooooooooooooooooooooooooo              oooo              oooooooooooooooooooooooooooooooooooooooooooooooo        oooooooooooooooo++++++++++++++oo                ",
"      oo++++++++++++++++++++++++++++++++oo           o++++o           oo++++++++++++++++++++++++++++++++++++++++++++++++oo      ++++++++++++++++++++++++++++++++                ",
"     o++++++++++++++++++++++++++++++++++++o         o++++++o         o++++++++++++++++++++++++++++++++++++++++++++++++++++o     ++++++++++++++++++++++++++++++++                ",
"    o++++++++++++++++++++++++++++++++++++++o        o++++++o        o++++++++++++++++++++++++++++++++++++++++++++++++++++++o    ++++++++++++++++++++++++++++++++                ",
"    o++++++++++++++++++++++++++++++++++++++o       o++++++++o       o++++++++++++++++++++++++++++++++++++++++++++++++++++++o    ++++++++++++++++++++++++++++++++                ",
"   o++++++++++++++++++++++++++++++++++++++++o      o++++++++o      o++++++++++++++++++++++++++++++++++++++++++++++++++++++++o   ++++++++++++++++++++++++++++++++                ",
"   o++++++++++++++++++++++++++++++++++++++++o      o++++++++o      o++++++++++++++++++++++++++++++++++++++++++++++++++++++++o   ++++++++++++++++++++++++++++++++                ",
"   o++++++++++++++++++++++++++++++++++++++++o      o++++++++o      o++++++++++++++++++++++++++++++++++++++++++++++++++++++++o   ++++++++++++++++++++++++++++++++                ",
"   o++++++++++++++++++++++++++++++++++++++++o      o++++++++o      o++++++++++++++++++++++++++++++++++++++++++++++++++++++++o   ++++++++++++++++++++++++++++++++                ",
"   o++++++++++++++++++++++++++++++++++++++++o      o++++++++o      o++++++++++oo++++++++++++++oooo++++++++++++++oo++++++++++o   oo++++++++++++oooo++++++++++++++                ",
"   o++++++++++++++++++++++++++++++++++++++++o      o++++++++o      o+++++++++o  +++++++++++++o    o+++++++++++++  o+++++++++o     o++++++++++o    o+++++++++++++                ",
"   o++++++++++++++++++++++++++++++++++++++++o      o++++++++o      o++++++++o   ++++++++++++o      o++++++++++++   o++++++++o      o++++++++o      o++++++++++++                ",
"   o++++++++++++++++++++++++++++++++++++++++o      o++++++++o      o++++++++o   ++++++++++++o      o++++++++++++   o++++++++o      o++++++++o      o++++++++++++                ",
"   o++++++++++++++++++++++++++++++++++++++++o      o++++++++o      o++++++++++++++++++++++++++++++++++++++++++++++++++++++++o   ++++++++++++++++   o++++++++++++                ",
"   o++++++++++++++++++++++++++++++++++++++++o      o++++++++o      o++++++++++++++++++++++++++++++++++++++++++++++++++++++++o   ++++++++++++++++   o++++++++++++                ",
"   o++++++++++++++++++++++++++++++++++++++++o      o++++++++o      o++++++++++++++++++++++++++++++++++++++++++++++++++++++++o   ++++++++++++++++  o+++++++++++++                ",
"   o++++++++++++++++++++++++++++++++++++++++o      o++++++++o      o++++++++++++++++++++++++++++++++++++++++++++++++++++++++o   ++++++++++++++++oo++++++++++++++                ",
"   o++++++++++++++++++++++++++++++++++++++++o      o++++++++o      o++++++++++++++++++++++++++++++++++++++++++++++++++++++++o   ++++++++++++++++++++++++++++++++                ",
"   o++++++++++++++++++++++++++++++++++++++++o      o++++++++o      o++++++++++++++++++++++++++++++++++++++++++++++++++++++++o   ++++++++++++++++++++++++++++++++                ",
"   o++++++++++++++++++++++++++++++++++++++++o      o++++++++o      o++++++++++++++++++++++++++++++++++++++++++++++++++++++++o   ++++++++++++++++++++++++++++++++                ",
"   o++++++++++++++++++++++++++++++++++++++++o      o++++++++o      o++++++++++++++++++++++++++++++++++++++++++++++++++++++++o   ++++++++++++++++++++++++++++++++                ",
"   o++++++++++++++++++++++++++++++++++++++++o      o++++++++o      o++++++++++++++++++++++++++++++++++++++++++++++++++++++++o   ++++++++++++++++++++++++++++++++                ",
"   o++++++++++++++++++++++++++++++++++++++++o      o++++++++o      o++++++++++++++++++++++++++++++++++++++++++++++++++++++++o   ++++++++++++++++++++++++++++++++                ",
"   o++++++++++++++++++++++++++++++++++++++++o      o++++++++o      o++++++++++++++++++++++++++++++++++++++++++++++++++++++++o   ++++++++++++++++++++++++++++++++                ",
"   o++++++++++++++++++++++++++++++++++++++++o      o++++++++o      o++++++++++++++++++++++++++++++++++++++++++++++++++++++++o   ++++++++++++++++++++++++++++++++                ",
"   o++++++++++++++++++++++++++++++++++++++++o      o++++++++o      o++++++++++oo++++++++++++++oooo++++++++++++++oo++++++++++o   oo++++++++++++oo++++++++++++++oo                ",
"   o++++++++++++++++++++++++++++++++++++++++o      o++++++++o      o+++++++++o  +++++++++++++o    o+++++++++++++  o+++++++++o     o++++++++++o  +++++++++++++o                  ",
"   o++++++++++++++++++++++++++++++++++++++++o      o++++++++o      o++++++++o   ++++++++++++o      o++++++++++++   o++++++++o      o++++++++o   ++++++++++++o                   ",
"   o++++++++++++++++++++++++++++++++++++++++o      o++++++++o      o++++++++o   ++++++++++++o      o++++++++++++   o++++++++o      o++++++++o   ++++++++++++o                   ",
"   o++++++++++++++++++++++++++++++++++++++++o      o++++++++o      o++++++++o   ++++++++++++o      o++++++++++++   o++++++++o      o++++++++o      o++++++++o      o++++++++o   ",
"   o++++++++++++++++++++++++++++++++++++++++o      o++++++++o      o++++++++o   ++++++++++++o      o++++++++++++   o++++++++o      o++++++++o      o++++++++o      o++++++++o   ",
"   o++++++++++++++++++++++++++++++++++++++++o      o++++++++o      o+++++++++o  +++++++++++++o    o+++++++++++++  o+++++++++o     o++++++++++o    o++++++++++o    o++++++++++o  ",
"   o++++++++++++++++++++++++++++++++++++++++o      o++++++++o      o++++++++++oo++++++++++++++oooo++++++++++++++oo++++++++++o   oo++++++++++++oooo++++++++++++oooo++++++++++++oo",
"   o++++++++++++++++++++++++++++++++++++++++o      o++++++++o      o++++++++++++++++++++++++++++++++++++++++++++++++++++++++o   ++++++++++++++++++++++++++++++++++++++++++++++++",
"   o++++++++++++++++++++++++++++++++++++++++o      o++++++++o      o++++++++++++++++++++++++++++++++++++++++++++++++++++++++o   ++++++++++++++++++++++++++++++++++++++++++++++++",
"   o++++++++++++++++++++++++++++++++++++++++o      o++++++++o      o++++++++++++++++++++++++++++++++++++++++++++++++++++++++o   ++++++++++++++++++++++++++++++++++++++++++++++++",
"   o++++++++++++++++++++++++++++++++++++++++o      o++++++++o      o++++++++++++++++++++++++++++++++++++++++++++++++++++++++o   ++++++++++++++++++++++++++++++++++++++++++++++++",
"    o++++++++++++++++++++++++++++++++++++++o       o++++++++o      o++++++++++++++++++++++++++++++++++++++++++++++++++++++++o   ++++++++++++++++++++++++++++++++++++++++++++++++",
"    o++++++++++++++++++++++++++++++++++++++o        o++++++o       o++++++++++++++++++++++++++++++++++++++++++++++++++++++++o   ++++++++++++++++++++++++++++++++++++++++++++++++",
"     o++++++++++++++++++++++++++++++++++++o         o++++++o       o++++++++++++++++++++++++++++++++++++++++++++++++++++++++o   ++++++++++++++++++++++++++++++++++++++++++++++++",
"      oo++++++++++++++++++++++++++++++++oo           o++++o        o++++++++++++++++++++++++++++++++++++++++++++++++++++++++o   ++++++++++++++++++++++++++++++++++++++++++++++++",
"        oooooooooooooooooooooooooooooooo              oooo         o++++++++++++++++++++++++++++++++++++++++++++++++++++++++o   ++++++++++++++++oo++++++++++++++++++++++++++++oo",
"                                                                   o++++++++++++++++++++++++++++++++++++++++++++++++++++++++o   ++++++++++++++++  o++++++++++++++++++++++++++o  ",
"                                                                   o++++++++++++++++++++++++++++++++++++++++++++++++++++++++o   ++++++++++++++++   o++++++++++++++++++++++++o   ",
"                                                                   o++++++++++++++++++++++++++++++++++++++++++++++++++++++++o   ++++++++++++++++   o++++++++++++++++++++++++o   ",
"                                                                   o++++++++o   ++++++++++++o      o++++++++++++   o++++++++o      o++++++++o      o++++++++++++++++++++++++o   ",
"                                                                   o++++++++o   ++++++++++++o      o++++++++++++   o++++++++o      o++++++++o      o++++++++++++++++++++++++o   ",
"                                                                   o+++++++++o  +++++++++++++o    o+++++++++++++  o+++++++++o     o++++++++++o    o++++++++++++++++++++++++++o  ",
"       oooooooooooooooooooooooooooooooooo            oooooo        o++++++++++oo++++++++++++++oooo++++++++++++++oo++++++++++o   oo++++++++++++oooo++++++++++++++++++++++++++++oo",
"     oo++++++++++++++++++++++++++++++++++oo         o++++++o       o++++++++++++++++++++++++++++++++++++++++++++++++++++++++o   ++++++++++++++++++++++++++++++++++++++++++++++++",
"    o++++++++++++++++++++++++++++++++++++++o       o++++++++o      o++++++++++++++++++++++++++++++++++++++++++++++++++++++++o   ++++++++++++++++++++++++++++++++++++++++++++++++",
"   o++++++++++++++++++++++++++++++++++++++++o      o++++++++o      o++++++++++++++++++++++++++++++++++++++++++++++++++++++++o   ++++++++++++++++++++++++++++++++++++++++++++++++",
"   o++++++++++++++++++++++++++++++++++++++++o      o++++++++o      o++++++++++++++++++++++++++++++++++++++++++++++++++++++++o   ++++++++++++++++++++++++++++++++++++++++++++++++",
"   o++++++++++++++++++++++++++++++++++++++++o      o++++++++o       o++++++++++++++++++++++++++++++++++++++++++++++++++++++o    ++++++++++++++++++++++++++++++++++++++++++++++++",
"   o++++++++++++++++++++++++++++++++++++++++o      o++++++++o       o++++++++++++++++++++++++++++++++++++++++++++++++++++++o    ++++++++++++++++++++++++++++++++++++++++++++++++",
"    o++++++++++++++++++++++++++++++++++++++o       o++++++++o        o++++++++++++++++++++++++++++++++++++++++++++++++++++o     ++++++++++++++++++++++++++++++++++++++++++++++++",
"     oo++++++++++++++++++++++++++++++++++oo         o++++++o          oo++++++++++++++++++++++++++++++++++++++++++++++++oo      ++++++++++++++++++++++++++++++++++++++++++++++++",
"       oooooooooooooooooooooooooooooooooo            oooooo             oooooooooooooooooooooooooooooooooooooooooooooooo        oooooooooooooooooo++++++++++++oooo++++++++++++oo",
"                                                                                                                                                  o++++++++++o    o++++++++++o  ",
"                                                                                                                                                   o++++++++o      o++++++++o   ",
"                                                                                                                                                   o++++++++o      o++++++++o   ",
"                                                                   o++++++++o   ++++++++++++o      o++++++++++++   o++++++++o      o++++++++o                                   ",
"                                                                   o++++++++o   ++++++++++++o      o++++++++++++   o++++++++o      o++++++++o                                   ",
"                                                                   o+++++++++o  +++++++++++++o    o+++++++++++++  o+++++++++o     o++++++++++o                                  ",
"                                                                   o++++++++++oo++++++++++++++oooo++++++++++++++oo++++++++++o   oo++++++++++++oo                                ",
"                                                                   o++++++++++++++++++++++++++++++++++++++++++++++++++++++++o   ++++++++++++++++                                ",
"                                                                   o++++++++++++++++++++++++++++++++++++++++++++++++++++++++o   ++++++++++++++++                                ",
"                                                                   o++++++++++++++++++++++++++++++++++++++++++++++++++++++++o   ++++++++++++++++                                ",
"       @@@             OO              @@                          o++++++++++++++++++++++++++++++++++++++++++++++++++++++++o   ++++++++++++++++                                ",
"      @@@@@           OOOO            @@@@                         o++++++++++++++++++++++++++++++++++++++++++++++++++++++++o   ++++++++++++++++                                ",
"       @@@             OO              @@                          o++++++++++++++++++++++++++++++++++++++++++++++++++++++++o   ++++++++++++++++                                ",
"                                                   ooo    ooo      o++++++++++++++++++++++++++++++++++++++++++++++++++++++++o   ++++++++++++++++                                ",
"                                                      oooo         o++++++++++++++++++++++++++++++++++++++++++++++++++++++++o   ++++++++++++++++                                ",
"                                                                   o++++++++++oo++++++++++++++oooo++++++++++++++oo++++++++++o   oo++++++++++++oo                                ",
"                                                                   o+++++++++o  +++++++++++++o    o+++++++++++++  o+++++++++o     o++++++++++o                                  ",
"                                                                   o++++++++o   ++++++++++++o      o++++++++++++   o++++++++o      o++++++++o                                   ",
"                                                                   o++++++++o   ++++++++++++o      o++++++++++++   o++++++++o      o++++++++o                                   ",
"++++++++++++++++++++++++++++++++++++++++++++++++                                                                                   o++++++++++++++++++++++++o                   ",
"++++++++++++++++++++++++++++++++++++++++++++++++                                                                                   o++++++++++++++++++++++++o                   ",
"++++++++++++++++++++++++++++++++++++++++++++++++                                       .    .            .   .    .  .  .     .    o+++++++++++++++++++++++...                  ",
"++++++++++++++++++++++++++++++++++++++++@@@@++++                                oooooooo.XX.oooooooooooooo.XX.ooooo..oooo.XXX.oo   o++++++++++++++++++++++.XX                   ",
"++++++++++++++++++++++OO+++++++++++++++@@@@@@+++                                +++++++++..+++++++++++++++.X.+++++++++++++...+++  .o+++++++++++++++++++++++..                   ",
"+++++++++++++++++++++OOOO+++++++++++++++@@@@++++                                ++++++++++++++++++++++++++..++++++++++++++++++++   .++++++++++++++++++++++++o.                  ",
"++++++++++++++++++++++OO+++++++++++@@+++++++++++                                ++++++++++++++++++++++++++++++++++++++++++++++++   X.+++++++++++++++++++++++o                   ",
"++++++++++++++++++++++++++++++++++@@@@++++++++++                                ++++++++++++++++++++++++++++++++++++++++++++++++   X.+++++++++++++++++++++++o                   ",
"+++++++++++++++++++++++++++OO++++++@@+++++++++++                                ++++++++++++++++++++++++++++++++++++++++++++++++  ..++++++++++++++++++++++++o.                  ",
"++++++++++++++++++++++++++OOOO++++++++++++++++++                                ++++++++++++++++++++++++++++++++++++++++++++++++   o++++++++++++++++++++++++.                   ",
"+++++++++++++++++++++++++++OO++++++++++++++@@+++                                ++++++++++++++++++++++++++++++++++++++++++++++++   o++++++++++++++++++++++++o.                  ",
"+++++++++++++++++++OO+++++++++++++++++++++@@@@++                                ++++++++++++++++++++++++++++++++++++++++++++++++   o++++++++++++++++++++++++o                   ",
"++++++++++++++++++OOOO+++++++++++++++++++++@@+++                                ++++++++++++++++++++++++++++++++++++++++++++++++   o++++++++++++++++++++++++o                   ",
"+++++++++++++++++++OO+++++++++++++++++++++++++++                                ++++++++++++++++++++++++++++++++++++++++++++++++   o++++++++++++++++++++++++o                   ",
"++++++++++++++++++++++++++++++++++++++++++++++++                                ++++++++++++++++++++++++++++++++++++++++++++++++   o++++++++++++++++++++++++o                   ",
"++++++++++++++++++++++++++++++++++++++++++++++++                                ++++++++++++++++++++++++++++++++++++++++++++++++   o++++++++++++++++++++++++o                   ",
"++++++++++++++++++++++++++++++++++++++++++++++++                                ++++++++++++++++++++++++++++++++                   o++++++++++++++++++++++++o                   ",
"++++++++++++++++++++++++++++++++++++++++++++++++                                ++++++++++++++++++++++++++++++++                   o++++++++++++++++++++++++o                   ",
"++++++++++++++++++++++++++++++++++++++++++++++++                                ++++++++++++++++++++++++++++++++                   .++++++++++++++++++++++++o                   ",
"+++++++++++++++++++++++++++++++++++++++++OOO++++                                ++++++++++++++++++++++++++++++++                   X.+++++++++++++++++++++++o                   ",
"++++++++++++++++++++++++++++++++++++++++OOOOO+++                                ++++++++++++++++++++++++++++++++                   .++++++++++++++++++++++++o                   ",
"+++++++++++++++++++++++++++++++++++++++++OOO++++                                ++++++++++++++++++++++++++++++++                   o++++++++++++++++++++++++o                   ",
"++++++++++++++++++++++++++++++++++++++++++++++++                                ++++++++++++++++++++++++++++++++                   o++++++++++++++++++++++++o                   ",
"++++++++++++++++++++++++@@++++++++++++OO++++++++                                ++++++++++++++++++++++++++++++++                   o++++++++++++++++++++++++o                   ",
"+++++++++++++++++++++++@@@@++++++++++OOOO+++++++                                ++++++++++++++++++++++++++++++++                   o++++++++++++++++++++++++o.                  ",
"++++++++++++++++++++++++@@++++++++++++OO++++++++                                ++++++++++++++++++++++++++++++++                  ...+++++++++++++++++++++++.                   ",
"+++ooo++++ooo+++++++++++++++++++++++++++++++++++                                +++++++++++++++++++..+++++++++++                   XX.+++++++++++++++++++++.X                   ",
"++++++oooo+++++++++@@@++++++++++++++++++++++++++                                +++++++++++++++++++.X.++++++++++                  ..X.+++++++++++++++++++++.X                   ",
"++++++++++++++++++@@@@@+++++++++++++++++++++++++                                oooo...oooooooooooo.XX.oooo...oo                   o..+++++++++++++++++++++.X                   ",
"+++++++++++++++++++@@@++++++++++++++++++++++++++                                   .   .          .   .   .   .                    o++++++++++++++++++++++++.                   ",
"++++++++++++++++++++++++++++++++++++++++++++++++                                                                                   o++++++++++++++++++++++++o.                  ",
"++++++++++++++++++++++++++++++++++++++++++++++++                                                                                   o++++++++++++++++++++++++o                   "
};
