/* XPM */
static char *tilled_dirt_wide_v2[] = {
/* columns rows colors chars-per-pixel */
"176 112 7 1 ",
"  c None",
". c #A4C263",
"X c #C0D470",
"o c #DCB98A",
"O c #E1C397",
"+ c #E8CFA6",
"@ c #EDDAB5",
/* pixels */
"                                                                                                                                                ++++++++++++++o                 ",
"      oooooooooooooooooooooooooooooooooooo            oooo            oooooooooooooooooooooooooooooooooooooooooooooooooooo      oooooooooooooooo+++++++++++++++o                ",
"    oo++++++++++++++++++++++++++++++++++++oo        oo++++oo        oo++++++++++++++++++++++++++++++++++++++++++++++++++++oo    ++++++++++++++++++++++++++++++++                ",
"   o++++++++++++++++++++++++++++++++++++++++o      o++++++++o      o++++++++++++++++++++++++++++++++++++++++++++++++++++++++o   ++++++++++++++++++++++++++++++++                ",
"  o++++++++++++++++++++++++++++++++++++++++++o    o++++++++++o    o++++++++++++++++++++++++++++++++++++++++++++++++++++++++++o  ++++++++++++++++++++++++++++++++                ",
"  o++++++++++++++++++++++++++++++++++++++++++o    o++++++++++o    o++++++++++++++++++++++++++++++++++++++++++++++++++++++++++o  ++++++++++++++++++++++++++++++++                ",
" o++++++++++++++++++++++++++++++++++++++++++++o  o++++++++++++o  o++++++++++++++++++++++++++++++++++++++++++++++++++++++++++++o ++++++++++++++++++++++++++++++++                ",
" o++++++++++++++++++++++++++++++++++++++++++++o  o++++++++++++o  o++++++++++++++++++++++++++++++++++++++++++++++++++++++++++++o ++++++++++++++++++++++++++++++++                ",
" o++++++++++++++++++++++++++++++++++++++++++++o  o++++++++++++o  o++++++++++++++++++++++++++++++++++++++++++++++++++++++++++++o ++++++++++++++++++++++++++++++++                ",
" o++++++++++++++++++++++++++++++++++++++++++++o  o++++++++++++o  o++++++++++++++++++++++++++++++++++++++++++++++++++++++++++++o ++++++++++++++++++++++++++++++++                ",
" o++++++++++++++++++++++++++++++++++++++++++++o  o++++++++++++o  o++++++++++++++++++++++++++++++++++++++++++++++++++++++++++++o ++++++++++++++++++++++++++++++++                ",
" o++++++++++++++++++++++++++++++++++++++++++++o  o++++++++++++o  o++++++++++++++++++++++++++++++++++++++++++++++++++++++++++++o ++++++++++++++++++++++++++++++++                ",
" o++++++++++++++++++++++++++++++++++++++++++++o  o++++++++++++o  o++++++++++++++++++++++++++++++++++++++++++++++++++++++++++++o ++++++++++++++++++++++++++++++++                ",
" o++++++++++++++++++++++++++++++++++++++++++++o  o++++++++++++o  o++++++++++++++++++++++++++++++++++++++++++++++++++++++++++++o ++++++++++++++++++++++++++++++++                ",
" o++++++++++++++++++++++++++++++++++++++++++++o  o++++++++++++o  o+++++++++++++o+++++++++++++++oo+++++++++++++++o+++++++++++++o o++++++++++++++oo+++++++++++++++                ",
" o++++++++++++++++++++++++++++++++++++++++++++o  o++++++++++++o  o++++++++++++o ++++++++++++++o  o++++++++++++++ o++++++++++++o  o++++++++++++o  o++++++++++++++                ",
" o++++++++++++++++++++++++++++++++++++++++++++o  o++++++++++++o  o++++++++++++++++++++++++++++++++++++++++++++++++++++++++++++o ++++++++++++++++ o++++++++++++++                ",
" o++++++++++++++++++++++++++++++++++++++++++++o  o++++++++++++o  o++++++++++++++++++++++++++++++++++++++++++++++++++++++++++++o ++++++++++++++++o+++++++++++++++                ",
" o++++++++++++++++++++++++++++++++++++++++++++o  o++++++++++++o  o++++++++++++++++++++++++++++++++++++++++++++++++++++++++++++o ++++++++++++++++++++++++++++++++                ",
" o++++++++++++++++++++++++++++++++++++++++++++o  o++++++++++++o  o++++++++++++++++++++++++++++++++++++++++++++++++++++++++++++o ++++++++++++++++++++++++++++++++                ",
" o++++++++++++++++++++++++++++++++++++++++++++o  o++++++++++++o  o++++++++++++++++++++++++++++++++++++++++++++++++++++++++++++o ++++++++++++++++++++++++++++++++                ",
" o++++++++++++++++++++++++++++++++++++++++++++o  o++++++++++++o  o++++++++++++++++++++++++++++++++++++++++++++++++++++++++++++o ++++++++++++++++++++++++++++++++                ",
" o++++++++++++++++++++++++++++++++++++++++++++o  o++++++++++++o  o++++++++++++++++++++++++++++++++++++++++++++++++++++++++++++o ++++++++++++++++++++++++++++++++                ",
" o++++++++++++++++++++++++++++++++++++++++++++o  o++++++++++++o  o++++++++++++++++++++++++++++++++++++++++++++++++++++++++++++o ++++++++++++++++++++++++++++++++                ",
" o++++++++++++++++++++++++++++++++++++++++++++o  o++++++++++++o  o++++++++++++++++++++++++++++++++++++++++++++++++++++++++++++o ++++++++++++++++++++++++++++++++                ",
" o++++++++++++++++++++++++++++++++++++++++++++o  o++++++++++++o  o++++++++++++++++++++++++++++++++++++++++++++++++++++++++++++o ++++++++++++++++++++++++++++++++                ",
" o++++++++++++++++++++++++++++++++++++++++++++o  o++++++++++++o  o++++++++++++++++++++++++++++++++++++++++++++++++++++++++++++o ++++++++++++++++++++++++++++++++                ",
" o++++++++++++++++++++++++++++++++++++++++++++o  o++++++++++++o  o++++++++++++++++++++++++++++++++++++++++++++++++++++++++++++o ++++++++++++++++++++++++++++++++                ",
" o++++++++++++++++++++++++++++++++++++++++++++o  o++++++++++++o  o++++++++++++++++++++++++++++++++++++++++++++++++++++++++++++o ++++++++++++++++++++++++++++++++                ",
" o++++++++++++++++++++++++++++++++++++++++++++o  o++++++++++++o  o++++++++++++++++++++++++++++++++++++++++++++++++++++++++++++o ++++++++++++++++++++++++++++++++                ",
" o++++++++++++++++++++++++++++++++++++++++++++o  o++++++++++++o  o+++++++++++++o+++++++++++++++oo+++++++++++++++o+++++++++++++o o++++++++++++++o+++++++++++++++o                ",
" o++++++++++++++++++++++++++++++++++++++++++++o  o++++++++++++o  o++++++++++++o ++++++++++++++o  o++++++++++++++ o++++++++++++o  o++++++++++++o ++++++++++++++o                 ",
" o++++++++++++++++++++++++++++++++++++++++++++o  o++++++++++++o  o++++++++++++o ++++++++++++++o  o++++++++++++++ o++++++++++++o  o++++++++++++o  o++++++++++++o  o++++++++++++o ",
" o++++++++++++++++++++++++++++++++++++++++++++o  o++++++++++++o  o+++++++++++++o+++++++++++++++oo+++++++++++++++o+++++++++++++o o++++++++++++++oo++++++++++++++oo++++++++++++++o",
" o++++++++++++++++++++++++++++++++++++++++++++o  o++++++++++++o  o++++++++++++++++++++++++++++++++++++++++++++++++++++++++++++o ++++++++++++++++++++++++++++++++++++++++++++++++",
" o++++++++++++++++++++++++++++++++++++++++++++o  o++++++++++++o  o++++++++++++++++++++++++++++++++++++++++++++++++++++++++++++o ++++++++++++++++++++++++++++++++++++++++++++++++",
" o++++++++++++++++++++++++++++++++++++++++++++o  o++++++++++++o  o++++++++++++++++++++++++++++++++++++++++++++++++++++++++++++o ++++++++++++++++++++++++++++++++++++++++++++++++",
" o++++++++++++++++++++++++++++++++++++++++++++o  o++++++++++++o  o++++++++++++++++++++++++++++++++++++++++++++++++++++++++++++o ++++++++++++++++++++++++++++++++++++++++++++++++",
" o++++++++++++++++++++++++++++++++++++++++++++o  o++++++++++++o  o++++++++++++++++++++++++++++++++++++++++++++++++++++++++++++o ++++++++++++++++++++++++++++++++++++++++++++++++",
" o++++++++++++++++++++++++++++++++++++++++++++o  o++++++++++++o  o++++++++++++++++++++++++++++++++++++++++++++++++++++++++++++o ++++++++++++++++++++++++++++++++++++++++++++++++",
" o++++++++++++++++++++++++++++++++++++++++++++o  o++++++++++++o  o++++++++++++++++++++++++++++++++++++++++++++++++++++++++++++o ++++++++++++++++++++++++++++++++++++++++++++++++",
" o++++++++++++++++++++++++++++++++++++++++++++o  o++++++++++++o  o++++++++++++++++++++++++++++++++++++++++++++++++++++++++++++o ++++++++++++++++++++++++++++++++++++++++++++++++",
"  o++++++++++++++++++++++++++++++++++++++++++o    o++++++++++o   o++++++++++++++++++++++++++++++++++++++++++++++++++++++++++++o ++++++++++++++++++++++++++++++++++++++++++++++++",
"  o++++++++++++++++++++++++++++++++++++++++++o    o++++++++++o   o++++++++++++++++++++++++++++++++++++++++++++++++++++++++++++o ++++++++++++++++++++++++++++++++++++++++++++++++",
"   o++++++++++++++++++++++++++++++++++++++++o      o++++++++o    o++++++++++++++++++++++++++++++++++++++++++++++++++++++++++++o ++++++++++++++++++++++++++++++++++++++++++++++++",
"    oo++++++++++++++++++++++++++++++++++++oo        oo++++oo     o++++++++++++++++++++++++++++++++++++++++++++++++++++++++++++o ++++++++++++++++++++++++++++++++++++++++++++++++",
"      oooooooooooooooooooooooooooooooooooo            oooo       o++++++++++++++++++++++++++++++++++++++++++++++++++++++++++++o ++++++++++++++++o++++++++++++++++++++++++++++++o",
"                                                                 o++++++++++++++++++++++++++++++++++++++++++++++++++++++++++++o ++++++++++++++++ o++++++++++++++++++++++++++++o ",
"                                                                 o++++++++++++o ++++++++++++++o  o++++++++++++++ o++++++++++++o  o++++++++++++o  o++++++++++++++++++++++++++++o ",
"      oooooooooooooooooooooooooooooooooooo            oooo       o+++++++++++++o+++++++++++++++oo+++++++++++++++o+++++++++++++o o++++++++++++++oo++++++++++++++++++++++++++++++o",
"    oo++++++++++++++++++++++++++++++++++++oo        oo++++oo     o++++++++++++++++++++++++++++++++++++++++++++++++++++++++++++o ++++++++++++++++++++++++++++++++++++++++++++++++",
"   o++++++++++++++++++++++++++++++++++++++++o      o++++++++o    o++++++++++++++++++++++++++++++++++++++++++++++++++++++++++++o ++++++++++++++++++++++++++++++++++++++++++++++++",
"  o++++++++++++++++++++++++++++++++++++++++++o    o++++++++++o   o++++++++++++++++++++++++++++++++++++++++++++++++++++++++++++o ++++++++++++++++++++++++++++++++++++++++++++++++",
"  o++++++++++++++++++++++++++++++++++++++++++o    o++++++++++o   o++++++++++++++++++++++++++++++++++++++++++++++++++++++++++++o ++++++++++++++++++++++++++++++++++++++++++++++++",
" o++++++++++++++++++++++++++++++++++++++++++++o  o++++++++++++o  o++++++++++++++++++++++++++++++++++++++++++++++++++++++++++++o ++++++++++++++++++++++++++++++++++++++++++++++++",
" o++++++++++++++++++++++++++++++++++++++++++++o  o++++++++++++o  o++++++++++++++++++++++++++++++++++++++++++++++++++++++++++++o ++++++++++++++++++++++++++++++++++++++++++++++++",
" o++++++++++++++++++++++++++++++++++++++++++++o  o++++++++++++o  o++++++++++++++++++++++++++++++++++++++++++++++++++++++++++++o ++++++++++++++++++++++++++++++++++++++++++++++++",
" o++++++++++++++++++++++++++++++++++++++++++++o  o++++++++++++o  o++++++++++++++++++++++++++++++++++++++++++++++++++++++++++++o ++++++++++++++++++++++++++++++++++++++++++++++++",
"  o++++++++++++++++++++++++++++++++++++++++++o    o++++++++++o    o++++++++++++++++++++++++++++++++++++++++++++++++++++++++++o  ++++++++++++++++++++++++++++++++++++++++++++++++",
"  o++++++++++++++++++++++++++++++++++++++++++o    o++++++++++o    o++++++++++++++++++++++++++++++++++++++++++++++++++++++++++o  ++++++++++++++++++++++++++++++++++++++++++++++++",
"   o++++++++++++++++++++++++++++++++++++++++o      o++++++++o      o++++++++++++++++++++++++++++++++++++++++++++++++++++++++o   ++++++++++++++++++++++++++++++++++++++++++++++++",
"    oo++++++++++++++++++++++++++++++++++++oo        oo++++oo        oo++++++++++++++++++++++++++++++++++++++++++++++++++++oo    ++++++++++++++++++++++++++++++++++++++++++++++++",
"      oooooooooooooooooooooooooooooooooooo            oooo            oooooooooooooooooooooooooooooooooooooooooooooooooooo      ooooooooooooooooo++++++++++++++oo++++++++++++++o",
"                                                                                                                                                 o++++++++++++o  o++++++++++++o ",
"                                                                 o++++++++++++o ++++++++++++++o  o++++++++++++++ o++++++++++++o  o++++++++++++o                                 ",
"                                                                 o+++++++++++++o+++++++++++++++oo+++++++++++++++o+++++++++++++o o++++++++++++++o                                ",
"                                                                 o++++++++++++++++++++++++++++++++++++++++++++++++++++++++++++o ++++++++++++++++                                ",
"                                                                 o++++++++++++++++++++++++++++++++++++++++++++++++++++++++++++o ++++++++++++++++                                ",
"                                                                 o++++++++++++++++++++++++++++++++++++++++++++++++++++++++++++o ++++++++++++++++                                ",
"                                                                 o++++++++++++++++++++++++++++++++++++++++++++++++++++++++++++o ++++++++++++++++                                ",
"                                                                 o++++++++++++++++++++++++++++++++++++++++++++++++++++++++++++o ++++++++++++++++                                ",
"       @@@             OO              @@                        o++++++++++++++++++++++++++++++++++++++++++++++++++++++++++++o ++++++++++++++++                                ",
"      @@@@@           OOOO            @@@@                       o++++++++++++++++++++++++++++++++++++++++++++++++++++++++++++o ++++++++++++++++                                ",
"       @@@             OO              @@                        o++++++++++++++++++++++++++++++++++++++++++++++++++++++++++++o ++++++++++++++++                                ",
"                                                   ooo    ooo    o++++++++++++++++++++++++++++++++++++++++++++++++++++++++++++o ++++++++++++++++                                ",
"                                                      oooo       o++++++++++++++++++++++++++++++++++++++++++++++++++++++++++++o ++++++++++++++++                                ",
"                                                                 o++++++++++++++++++++++++++++++++++++++++++++++++++++++++++++o ++++++++++++++++                                ",
"                                                                 o++++++++++++++++++++++++++++++++++++++++++++++++++++++++++++o ++++++++++++++++                                ",
"                                                                 o+++++++++++++o+++++++++++++++oo+++++++++++++++o+++++++++++++o o++++++++++++++o                                ",
"                                                                 o++++++++++++o ++++++++++++++o  o++++++++++++++ o++++++++++++o  o++++++++++++o                                 ",
"++++++++++++++++++++++++++++++++++++++++++++++++                                       .    .            .   .    .  .  .     .  o++++++++++++++++++++++++++++o                 ",
"++++++++++++++++++++++++++++++++++++++++++++++++                                oooooooo.XX.oooooooooooooo.XX.ooooo..oooo.XXX.oo o++++++++++++++++++++++++++++o                 ",
"++++++++++++++++++++++++++++++++++++++++++++++++                                +++++++++..+++++++++++++++.X.+++++++++++++...+++ o+++++++++++++++++++++++++++...                ",
"++++++++++++++++++++++++++++++++++++++++@@@@++++                                ++++++++++++++++++++++++++..++++++++++++++++++++ o++++++++++++++++++++++++++.XX                 ",
"++++++++++++++++++++++OO+++++++++++++++@@@@@@+++                                ++++++++++++++++++++++++++++++++++++++++++++++++.o+++++++++++++++++++++++++++..                 ",
"+++++++++++++++++++++OOOO+++++++++++++++@@@@++++                                ++++++++++++++++++++++++++++++++++++++++++++++++ .++++++++++++++++++++++++++++o.                ",
"++++++++++++++++++++++OO+++++++++++@@+++++++++++                                ++++++++++++++++++++++++++++++++++++++++++++++++ X.+++++++++++++++++++++++++++o                 ",
"++++++++++++++++++++++++++++++++++@@@@++++++++++                                ++++++++++++++++++++++++++++++++++++++++++++++++ X.+++++++++++++++++++++++++++o                 ",
"+++++++++++++++++++++++++++OO++++++@@+++++++++++                                ++++++++++++++++++++++++++++++++++++++++++++++++..++++++++++++++++++++++++++++o.                ",
"++++++++++++++++++++++++++OOOO++++++++++++++++++                                ++++++++++++++++++++++++++++++++++++++++++++++++ o++++++++++++++++++++++++++++.                 ",
"+++++++++++++++++++++++++++OO++++++++++++++@@+++                                ++++++++++++++++++++++++++++++++++++++++++++++++ o++++++++++++++++++++++++++++o.                ",
"+++++++++++++++++++OO+++++++++++++++++++++@@@@++                                ++++++++++++++++++++++++++++++++++++++++++++++++ o++++++++++++++++++++++++++++o                 ",
"++++++++++++++++++OOOO+++++++++++++++++++++@@+++                                ++++++++++++++++++++++++++++++++++++++++++++++++ o++++++++++++++++++++++++++++o                 ",
"+++++++++++++++++++OO+++++++++++++++++++++++++++                                ++++++++++++++++++++++++++++++++++++++++++++++++ o++++++++++++++++++++++++++++o                 ",
"++++++++++++++++++++++++++++++++++++++++++++++++                                ++++++++++++++++++++++++++++++++++++++++++++++++ o++++++++++++++++++++++++++++o                 ",
"++++++++++++++++++++++++++++++++++++++++++++++++                                ++++++++++++++++++++++++++++++++++++++++++++++++ o++++++++++++++++++++++++++++o                 ",
"++++++++++++++++++++++++++++++++++++++++++++++++                                ++++++++++++++++++++++++++++++++                 o++++++++++++++++++++++++++++o                 ",
"++++++++++++++++++++++++++++++++++++++++++++++++                                ++++++++++++++++++++++++++++++++                 o++++++++++++++++++++++++++++o                 ",
"++++++++++++++++++++++++++++++++++++++++++++++++                                ++++++++++++++++++++++++++++++++                 .++++++++++++++++++++++++++++o                 ",
"+++++++++++++++++++++++++++++++++++++++++OOO++++                                ++++++++++++++++++++++++++++++++                 X.+++++++++++++++++++++++++++o                 ",
"++++++++++++++++++++++++++++++++++++++++OOOOO+++                                ++++++++++++++++++++++++++++++++                 .++++++++++++++++++++++++++++o                 ",
"+++++++++++++++++++++++++++++++++++++++++OOO++++                                ++++++++++++++++++++++++++++++++                 o++++++++++++++++++++++++++++o                 ",
"++++++++++++++++++++++++++++++++++++++++++++++++                                ++++++++++++++++++++++++++++++++                 o++++++++++++++++++++++++++++o                 ",
"++++++++++++++++++++++++@@++++++++++++OO++++++++                                ++++++++++++++++++++++++++++++++                 o++++++++++++++++++++++++++++o                 ",
"+++++++++++++++++++++++@@@@++++++++++OOOO+++++++                                ++++++++++++++++++++++++++++++++                 o++++++++++++++++++++++++++++o.                ",
"++++++++++++++++++++++++@@++++++++++++OO++++++++                                ++++++++++++++++++++++++++++++++                ...+++++++++++++++++++++++++++.                 ",
"+++ooo++++ooo+++++++++++++++++++++++++++++++++++                                ++++++++++++++++++++++++++++++++                 XX.+++++++++++++++++++++++++.X                 ",
"++++++oooo+++++++++@@@++++++++++++++++++++++++++                                ++++++++++++++++++++++++++++++++                ..X.+++++++++++++++++++++++++.X                 ",
"++++++++++++++++++@@@@@+++++++++++++++++++++++++                                +++++++++++++++++++..+++++++++++                 o..+++++++++++++++++++++++++.X                 ",
"+++++++++++++++++++@@@++++++++++++++++++++++++++                                +++++++++++++++++++.X.++++++++++                 o++++++++++++++++++++++++++++.                 ",
"++++++++++++++++++++++++++++++++++++++++++++++++                                oooo...oooooooooooo.XX.oooo...oo                 o++++++++++++++++++++++++++++o.                ",
"++++++++++++++++++++++++++++++++++++++++++++++++                                   .   .          .   .   .   .                  o++++++++++++++++++++++++++++o                 "
};
