/* XPM */
static char *tilled_dirt_v2[] = {
/* columns rows colors chars-per-pixel */
"176 112 7 1 ",
"  c None",
". c #A4C263",
"X c #C0D470",
"o c #DCB98A",
"O c #E1C397",
"+ c #E8CFA6",
"@ c #EDDAB5",
/* pixels */
"                                                                                                                                                +++++o                          ",
"                                                                                                                                                ++++++oooo                      ",
"                                                                                                                                                ++++++++++oo                    ",
"                                                                        oooooooo      oooooooooooooooooooo      oooooooo        oooooooooooooooo++++++++++++o                   ",
"                                                                      oo++++++++     o++++++++++++++++++++o     ++++++++oo      +++++++++++++++++++++++++++++o                  ",
"                                                                     o++++++++++    o++++++++++++++++++++++o    ++++++++++o     ++++++++++++++++o++++++++++++o                  ",
"                                                                    o+++++++++++   o++++++++++++++++++++++++o   +++++++++++o    ++++++++++++++++ o++++++++++++o                 ",
"                                                                    o+++++++++++   o++++++++++++++++++++++++o   +++++++++++o    ++++++++++++++++ o++++++++++++o                 ",
"                                                                   o++++++++++++   o++++++++++++++++++++++++o   ++++++++++++o   ++++++++++++++++ o++++++++++++o                 ",
"                                                                   o++++++++++++  o++++++++++++++++++++++++++o  ++++++++++++o   ++++++++++++++++ o++++++++++++o                 ",
"                oooooooooooooooo                                   o++++++++++++oo++++++++++++++++++++++++++++oo++++++++++++o   ++++++++++++++++  o++++++++++++o                ",
"             ooo++++++++++++++++ooo                   oooo         o++++++++++++++++++++++++++++++++++++++++++++++++++++++++o   ++++++++++++++++  o+++++++++++++                ",
"            o++++++++++++++++++++++o                 o++++o        o++++++++++oo+++++++oooooooooooooooooo+++++++oo++++++++++o   oo++++++++++++oo   o++++++++++++                ",
"           o++++++++++++++++++++++++o               o++++++o       o+++++++++o  ++++++o                  o++++++  o+++++++++o     o++++++++++o      oo++++++++++                ",
"           o++++++++++++++++++++++++o               o++++++o       o++++++++o   +++++o                    o+++++   o++++++++o      o++++++++o         oooo++++++                ",
"           o++++++++++++++++++++++++o               o++++++o       o++++++++o   +++++o                    o+++++   o++++++++o      o++++++++o             o+++++                ",
"          o++++++++++++++++++++++++++o             o++++++++o             o++++++++++++++++++++++++++++++++++++++++++o          ++++++++++++++++          o+++++                ",
"          o++++++++++++++++++++++++++o             o++++++++o             o++++++++++++++++++++++++++++++++++++++++++o          ++++++++++++++++      oooo++++++                ",
"          o++++++++++++++++++++++++++o             o++++++++o            o++++++++++++++++++++++++++++++++++++++++++++o         ++++++++++++++++    oo++++++++++                ",
"          o++++++++++++++++++++++++++o             o++++++++o         ooo++++++++++++++++++++++++++++++++++++++++++++++ooo      ++++++++++++++++   o++++++++++++                ",
"          o++++++++++++++++++++++++++o             o++++++++o        o++++++++++++++++++++++++++++++++++++++++++++++++++++o     ++++++++++++++++  o+++++++++++++                ",
"          o++++++++++++++++++++++++++o             o++++++++o       o+++++++++oo+++++++oooooooooooooooooo+++++++oo+++++++++o    oo++++++++++++oo  o++++++++++++o                ",
"          o++++++++++++++++++++++++++o             o++++++++o      o+++++++++o  ++++++o                  o++++++  o+++++++++o     o++++++++++o   o++++++++++++o                 ",
"          o++++++++++++++++++++++++++o             o++++++++o      o++++++++o   +++++o                    o+++++   o++++++++o      o++++++++o    o++++++++++++o                 ",
"          o++++++++++++++++++++++++++o             o++++++++o      o++++++++o   +++++o                    o+++++   o++++++++o      o++++++++o    o++++++++++++o                 ",
"          o++++++++++++++++++++++++++o             o++++++++o      o++++++++o   +++++o                    o+++++   o++++++++o      o++++++++o    o++++++++++++o                 ",
"          o++++++++++++++++++++++++++o             o++++++++o      o++++++++o   +++++o                    o+++++   o++++++++o      o++++++++o   o++++++++++++o                  ",
"          o++++++++++++++++++++++++++o             o++++++++o      o++++++++o   +++++o                    o+++++   o++++++++o      o++++++++o   +++++++++++++o                  ",
"          o++++++++++++++++++++++++++o             o++++++++o      o++++++++o   +++++o                    o+++++   o++++++++o      o++++++++o   ++++++++++++o                   ",
"          o++++++++++++++++++++++++++o             o++++++++o      o++++++++o   +++++o                    o+++++   o++++++++o      o++++++++o   ++++++++++oo                    ",
"          o++++++++++++++++++++++++++o             o++++++++o      o++++++++o   +++++o                    o+++++   o++++++++o      o++++++++o   ++++++oooo                      ",
"          o++++++++++++++++++++++++++o             o++++++++o      o++++++++o   +++++o                    o+++++   o++++++++o      o++++++++o   +++++o                          ",
"           o++++++++++++++++++++++++o               o++++++o       o++++++++o   +++++o                    o+++++   o++++++++o      o++++++++o      o++++++++o      o++++++++o   ",
"           o++++++++++++++++++++++++o               o++++++o       o++++++++o   +++++o                    o+++++   o++++++++o      o++++++++o      o++++++++o      o++++++++o   ",
"           o++++++++++++++++++++++++o               o++++++o       o++++++++o   +++++o                    o+++++   o++++++++o      o++++++++o     o+++++++++o      o+++++++++o  ",
"            o++++++++++++++++++++++o                 o++++o        o++++++++o   +++++o                    o+++++   o++++++++o      o++++++++o   oo++++++++++o      o++++++++++oo",
"             ooo++++++++++++++++ooo                   oooo         o++++++++o   +++++o                    o+++++   o++++++++o      o++++++++o   +++++++++++++o    o+++++++++++++",
"                oooooooooooooooo                                   o++++++++o   +++++o                    o+++++   o++++++++o      o++++++++o   +++++++++++++o    o+++++++++++++",
"                                                                   o++++++++o   +++++o                    o+++++   o++++++++o      o++++++++o   +++++++++++++o    o+++++++++++++",
"                                                                   o++++++++o   +++++o                    o+++++   o++++++++o      o++++++++o   +++++++++++++o    o+++++++++++++",
"                                                                   o++++++++o   +++++o                    o+++++   o++++++++o      o++++++++o   +++++++++++++o    o+++++++++++++",
"                                                                   o+++++++++o  ++++++o                  o++++++  o+++++++++o     o++++++++++o  ++++++++++++++o  o++++++++++++++",
"                                                                    o+++++++++oo+++++++oooooooooooooooooo+++++++oo+++++++++o    oo++++++++++++oo+++++++++++++++oo+++++++++++++++",
"                                                                     o++++++++++++++++++++++++++++++++++++++++++++++++++++o     ++++++++++++++++++++++++++++++++++++++++++++++++",
"                                                                      ooo++++++++++++++++++++++++++++++++++++++++++++++ooo      ++++++++++++++++oooo++++++++++++++++++++++++oooo",
"                                                                         o++++++++++++++++++++++++++++++++++++++++++++o         ++++++++++++++++    ooooo++++++++++++++ooooo    ",
"                                                                          o++++++++++++++++++++++++++++++++++++++++++o          ++++++++++++++++         o++++++++++++o         ",
"                                                                          o++++++++++++++++++++++++++++++++++++++++++o          ++++++++++++++++          o++++++++++o          ",
"                                                                   o++++++++o   +++++o                    o+++++   o++++++++o      o++++++++o             o++++++++++o          ",
"                                                                   o++++++++o   +++++o                    o+++++   o++++++++o      o++++++++o            o++++++++++++o         ",
"                                                                   o+++++++++o  ++++++o                  o++++++  o+++++++++o     o++++++++++o      ooooo++++++++++++++ooooo    ",
"                oooooooooooooooo                                   o++++++++++oo+++++++oooooooooooooooooo+++++++oo++++++++++o   oo++++++++++++oooooo++++++++++++++++++++++++oooo",
"             ooo++++++++++++++++ooo                   oooo         o++++++++++++++++++++++++++++++++++++++++++++++++++++++++o   ++++++++++++++++++++++++++++++++++++++++++++++++",
"            o++++++++++++++++++++++o                 o++++o        o++++++++++++oo++++++++++++++++++++++++++++oo++++++++++++o   +++++++++++++++++++++++++++++++oo+++++++++++++++",
"           o++++++++++++++++++++++++o               o++++++o       o++++++++++++  o++++++++++++++++++++++++++o  ++++++++++++o   ++++++++++++++++++++++++++++++o  o++++++++++++++",
"           o++++++++++++++++++++++++o               o++++++o       o++++++++++++   o++++++++++++++++++++++++o   ++++++++++++o   +++++++++++++++++++++++++++++o    o+++++++++++++",
"           o++++++++++++++++++++++++o               o++++++o        o+++++++++++   o++++++++++++++++++++++++o   +++++++++++o    +++++++++++++++++++++++++++++o    o+++++++++++++",
"           o++++++++++++++++++++++++o               o++++++o        o+++++++++++   o++++++++++++++++++++++++o   +++++++++++o    +++++++++++++++++++++++++++++o    o+++++++++++++",
"            o++++++++++++++++++++++o                 o++++o          o++++++++++    o++++++++++++++++++++++o    ++++++++++o     +++++++++++++++++++++++++++++o    o+++++++++++++",
"             ooo++++++++++++++++ooo                   oooo            oo++++++++     o++++++++++++++++++++o     ++++++++oo      +++++++++++++++++++++++++++++o    o+++++++++++++",
"                oooooooooooooooo                                        oooooooo      oooooooooooooooooooo      oooooooo        oooooooooooooooooo++++++++++o      o++++++++++oo",
"                                                                                                                                                  o+++++++++o      o+++++++++o  ",
"                                                                                                                                                   o++++++++o      o++++++++o   ",
"                                                                                                                                                   o++++++++o      o++++++++o   ",
"                                                                   o++++++++o   +++++o                    o+++++   o++++++++o      o++++++++o                                   ",
"                                                                   o++++++++o   +++++o                    o+++++   o++++++++o      o++++++++o                                   ",
"                                                                   o+++++++++o  ++++++o                  o++++++  o+++++++++o     o++++++++++o                                  ",
"                                                                   o++++++++++oo+++++++oooooooooooooooooo+++++++oo++++++++++o   oo++++++++++++oo                                ",
"                                                                   o++++++++++++++++++++++++++++++++++++++++++++++++++++++++o   ++++++++++++++++                                ",
"                                                                   o++++++++++++++++++++++++++++++++++++++++++++++++++++++++o   ++++++++++++++++                                ",
"                                                                   o++++++++++++++++++++++++++++++++++++++++++++++++++++++++o   ++++++++++++++++                                ",
"       @@@             OO              @@                          o++++++++++++++++++++++++++++++++++++++++++++++++++++++++o   ++++++++++++++++                                ",
"      @@@@@           OOOO            @@@@                         o++++++++++++++++++++++++++++++++++++++++++++++++++++++++o   ++++++++++++++++                                ",
"       @@@             OO              @@                          o++++++++++++++++++++++++++++++++++++++++++++++++++++++++o   ++++++++++++++++                                ",
"                                                   ooo    ooo      o++++++++++++++++++++++++++++++++++++++++++++++++++++++++o   ++++++++++++++++                                ",
"                                                      oooo         o++++++++++++++++++++++++++++++++++++++++++++++++++++++++o   ++++++++++++++++                                ",
"                                                                   o++++++++++oo+++++++oooooooooooooooooo+++++++oo++++++++++o   oo++++++++++++oo                                ",
"                                                                   o+++++++++o  ++++++o                  o++++++  o+++++++++o     o++++++++++o                                  ",
"                                                                   o++++++++o   +++++o                    o+++++   o++++++++o      o++++++++o                                   ",
"                                                                   o++++++++o   +++++o                    o+++++   o++++++++o      o++++++++o                                   ",
"++++++++++++++++++++++++++++++++++++++++++++++++++++++++++++++++++++++++++++++++                                                          o++++++++++o                          ",
"++++++++++++++++++++++++++++++++++++++++++++++++++++++++++++++++++++++++++++++++                                                          o++++++++++o                          ",
"++++++++++++++++++++++++++++++++++++++++++++++++++++++++++++++++++++++++++++++++                                                          o+++++++++...                         ",
"++++++++++++++++++++++++++++++++++++++++@@@@++++++++++++++...+++++++++++++++++++                                                          o++++++++.XX                          ",
"++++++++++++++++++++++OO+++++++++++++++@@@@@@+++++++++++++.XX.++++++++++++++++++                                                         .o+++++++++..                          ",
"+++++++++++++++++++++OOOO+++++++++++++++@@@@+++++++++++oooo.X.oooooo..ooo+++++++                                                          .++++++++++o.                         ",
"++++++++++++++++++++++OO+++++++++++@@+++++++++++++++++o    . .     .  .  o++++++                                                          X.+++++++++o                          ",
"++++++++++++++++++++++++++++++++++@@@@+++++++++++++++o                    o+++++                                                          X.+++++++++o                          ",
"+++++++++++++++++++++++++++OO++++++@@++++++++++++++++o                    o+++++                                                         ..++++++++++o.                         ",
"++++++++++++++++++++++++++OOOO+++++++++++++++++++++++o.                  .o+++++       .    .            .   .    .  .  .     .           o++++++++++.                          ",
"+++++++++++++++++++++++++++OO++++++++++++++@@++++++++.                    .+++++oooooooo.XX.oooooooooooooo.XX.ooooo..oooo.XXX.oo          o++++++++++o.                         ",
"+++++++++++++++++++OO+++++++++++++++++++++@@@@+++++++.                    X.+++++++++++++..+++++++++++++++.X.+++++++++++++...+++          o++++++++++o                          ",
"++++++++++++++++++OOOO+++++++++++++++++++++@@++++++++o.                   X.++++++++++++++++++++++++++++++..++++++++++++++++++++          o++++++++++o                          ",
"+++++++++++++++++++OO++++++++++++++++++++++++++++++++o                    .+++++++++++++++++++++++++++++++++++++++++++++++++++++          o++++++++++o                          ",
"+++++++++++++++++++++++++++++++++++++++++++++++++++++o                   .o+++++++++++++++++++++++++++++++++++++++++++++++++++++          o++++++++++o                          ",
"+++++++++++++++++++++++++++++++++++++++++++++++++++++o                    o+++++++++++++++++++++++++++++++++++++++++++++++++++++          o++++++++++o                          ",
"+++++++++++++++++++++++++++++++++++++++++++++++++++++o.                   o+++++++++++++++++++++++++++++++++++++                          o++++++++++o                          ",
"++++++++++++++++++++++++++++++++++++++++++++++++++++..                   .o+++++++++++++++++++++++++++++++++++++                          o++++++++++o                          ",
"+++++++++++++++++++++++++++++++++++++++++++++++++++.XX                    .+++++++++++++++++++++++++++++++++++++                          .++++++++++o                          ",
"+++++++++++++++++++++++++++++++++++++++++OOO++++++++..                    X.+++++++++++++++++++++++..+++++++++++                          X.+++++++++o                          ",
"++++++++++++++++++++++++++++++++++++++++OOOOO++++++++o.                  ...+++++++++++++++++++++++.X.++++++++++                          .++++++++++o                          ",
"+++++++++++++++++++++++++++++++++++++++++OOO+++++++++.                    o+++++oooo...oooooooooooo.XX.oooo...oo                          o++++++++++o                          ",
"+++++++++++++++++++++++++++++++++++++++++++++++++++++o.                   o+++++   .   .          .   .   .   .                           o++++++++++o                          ",
"++++++++++++++++++++++++@@++++++++++++OO+++++++++++++o                    o+++++                                                          o++++++++++o                          ",
"+++++++++++++++++++++++@@@@++++++++++OOOO++++++++++++o                    o+++++                                                          o++++++++++o.                         ",
"++++++++++++++++++++++++@@++++++++++++OO++++++++++++++o   .   .   .  .   o++++++                                                         ...+++++++++.                          ",
"+++ooo++++ooo++++++++++++++++++++++++++++++++++++++++++oooo...ooooo.X.ooo+++++++                                                          XX.+++++++.X                          ",
"++++++oooo+++++++++@@@++++++++++++++++++++++++++++++++++++++++++++++..++++++++++                                                         ..X.+++++++.X                          ",
"++++++++++++++++++@@@@@+++++++++++++++++++++++++++++++++++++++++++++++++++++++++                                                          o..+++++++.X                          ",
"+++++++++++++++++++@@@++++++++++++++++++++++++++++++++++++++++++++++++++++++++++                                                          o++++++++++.                          ",
"++++++++++++++++++++++++++++++++++++++++++++++++++++++++++++++++++++++++++++++++                                                          o++++++++++o.                         ",
"++++++++++++++++++++++++++++++++++++++++++++++++++++++++++++++++++++++++++++++++                                                          o++++++++++o                          "
};
