/* XPM */
static char *e49b445f74084b5890fa99b37cc6fba50fbXNTBiT0Re0yqw[] = {
/* columns rows colors chars-per-pixel */
"32 32 136 2 ",
"   c #D0AA5F",
".  c #D1AB60",
"X  c #D2AB60",
"o  c #D0A863",
"O  c #D1A963",
"+  c #D1AB62",
"@  c #D2AC63",
"#  c #D5AE61",
"$  c #D6AF62",
"%  c #D0A964",
"&  c #D1A964",
"*  c #D1AB64",
"=  c #D1AA65",
"-  c #D0AB65",
";  c #D2AA64",
":  c #D2AA65",
">  c #D3AB65",
",  c #D1AA67",
"<  c #D0AB67",
"1  c #D2AB66",
"2  c #D3AB66",
"3  c #D4A964",
"4  c #D5AA65",
"5  c #D6AB67",
"6  c #D1AC65",
"7  c #D3AD64",
"8  c #D2AC65",
"9  c #D3AD66",
"0  c #D3AC67",
"q  c #D4AC64",
"w  c #D5AD65",
"e  c #D7AD65",
"r  c #D4AE65",
"t  c #D6AF64",
"y  c #D4AC66",
"u  c #D4AC67",
"i  c #D5AD67",
"p  c #D7AC67",
"a  c #D5AF66",
"s  c #D4AE67",
"d  c #D6AE66",
"f  c #D8AE66",
"g  c #D0A968",
"h  c #D0AA69",
"j  c #D1AA69",
"k  c #D3AA68",
"l  c #D2AB68",
"z  c #D2A96B",
"x  c #D1AB6A",
"c  c #D3AA6A",
"v  c #D2AB6A",
"b  c #D4AB69",
"n  c #D4AB6B",
"m  c #D1AC68",
"M  c #D3AC69",
"N  c #D2AD69",
"B  c #D0AD6B",
"V  c #D2AC6B",
"C  c #D3AC6B",
"Z  c #D1AE6A",
"A  c #D3AE6A",
"S  c #D4AD68",
"D  c #D5AD68",
"F  c #D5AF68",
"G  c #D5AE69",
"H  c #D4AF69",
"J  c #D6AE68",
"K  c #D6AE69",
"L  c #D7AF69",
"P  c #D5AC6A",
"I  c #D4AD6A",
"U  c #D6AD6B",
"Y  c #D5AE6B",
"T  c #D4AF6B",
"R  c #D7AF6A",
"E  c #D1AB6C",
"W  c #D2AA6C",
"Q  c #D3AB6D",
"!  c #D3AB6E",
"~  c #D2AA6F",
"^  c #D4AB6D",
"/  c #D4AA6E",
"(  c #D0AD6D",
")  c #D3AD6C",
"_  c #D2AC6D",
"`  c #D1AE6C",
"'  c #D0AC6E",
"]  c #D1AD6F",
"[  c #D2AC6E",
"{  c #D3AD6E",
"}  c #D3AD6F",
"|  c #D1AE6E",
" . c #D2AF6F",
".. c #D5AC6C",
"X. c #D4AD6C",
"o. c #D6AD6D",
"O. c #D4AE6D",
"+. c #D5AE6D",
"@. c #D7AE6C",
"#. c #D6AF6C",
"$. c #D4AC6E",
"%. c #D5AC6E",
"&. c #D4AC6F",
"*. c #D5AD6F",
"=. c #D6AD6F",
"-. c #D5AF6E",
";. c #D4AE6F",
":. c #D7AE6E",
">. c #D6AF6E",
",. c #D8AD68",
"<. c #D8AD69",
"1. c #D6B065",
"2. c #D7B065",
"3. c #D4B066",
"4. c #D5B167",
"5. c #D7B168",
"6. c #D5B06A",
"7. c #D5B06C",
"8. c #D8B068",
"9. c #D8B269",
"0. c #D2AB70",
"q. c #D3AB70",
"w. c #D3AA72",
"e. c #D4AA70",
"r. c #D1AD71",
"t. c #D3AC71",
"y. c #D3AC73",
"u. c #D5AD70",
"i. c #D4AC71",
"p. c #D4AE70",
"a. c #D5AF71",
"s. c #D7AE70",
"d. c #D6AE71",
"f. c #D4AD72",
"g. c #D5AD72",
"h. c #D6AE73",
/* pixels */
"w.} } $.u.$.I u I I I I u I I ^ 6.I 6.6.V $.u.$.- u.X $.v 4.e.u ",
"$.V V V Q $.I f I $.I I u 6 n ^ t.} $.V - 6 I 6 v u.@ $.v u e.n ",
"I 6 6 - - V I f I $.$.V 6 6 V $.u.Q V v X - u u V u.- V v u ^ n ",
"V - 6 - v V I I V $.$.V - - V $.I u u u - n $.^ $.$.v v v V ^ $.",
"v v v V Q Q n n } $.$.$.- - V $.I u I I u $.u.^ $.V Q v V V I $.",
"v v V } } Q ^ v } $.u.} V 6 I $.u.Q $.I I I I - $.- Q - I V I $.",
"v v 6 V } Q v - } } t.} $.I I $.t.Q $.$.V I I - $.6 u.6 6.Q u I ",
"v u 6 6 V v 6 X V } w.$.$.I I $.I V V V v $.u.Q $.@ u.u 8.Q $ I ",
"$.I I I I I I $.Q $.u.} } } V - } } } } } } } } V V } } } $.u.u.",
"I v - - u u I I Q $.} } } V V - V V V V } } } } } $.} } $.I I I ",
"v v - - - u I I V $.} v v V V - v v v v V } } $.u.} $.V 6 u u 4.",
"v I 6 - - I $.I $.} V v v V V V V v v v v V } $.$.Q v v 3 u u u ",
"V I I I I $.I V } } } v v V } } I I V v v V } } I 6 - - - u I I ",
"V $.I I I I $.v } $.$.v v $.$.} I I I V V V V V I u 6 V V V $.$.",
"} } $.$.$.V } } } $.$.V V $.$.} I I I I V V V V I I $.} V } } } ",
"u.} Q $.$.Q } u.} } $.Q Q $.} t.V I I I $.V V V } } } } } V V v ",
"$.$.I u ,.I $.$.V I 6 - - V V V } } V V V V } } t.t.} } } V 6 6 ",
"$.I u 3 3 u I I V } V - - V V V } } } } V V } } $.$.} } $.$.I I ",
"v v - X - I I I } V V v - V V v $.$.} V V V } } I u u 6 V $.$.$.",
"- - - u I I I I } } } V V V V v } } V v v V } } u 6 - - 6 n I I ",
"I I I I I I u - } } } } } $.V V } v v v v V } u.$.V v - - u u u ",
"I I I v I I I - $.} } $.$.$.V I v v v v V V } u.u.$.$.V V I I u ",
"- v v Q } $.I u $.} } } } V n I } V V V V } } } u.$.} } I I $.$.",
"- V $.} } $.v X $.} } } } V u ,.} V } } } } } } } } } } } } w.w.",
"3 - u V } } $.V v } u.} V V V } I V V V v $.u.Q ^ @ u.u 8.^ $ n ",
"- - v v v v V $.$.} } V - - V $.t.w.$.$.V I I - ^ 6 u.6 I ^ 4.$.",
"I I v v v v I I I $.$.- - - v $.u.Q $.I I I I - Q v $.- I ^ I $.",
"$.$.V V V I I I I $.I u - - 6 $.I u I I u $.u.^ Q V Q v V V I $.",
"$.$.$.$.$.I I I V $.$.,.u u I $.I u u u - n $.^ $.$.v v v V Q $.",
"$.} $.$.$.$.I I V $.$.,.f u I $.u.Q V v X - u u $.u.- V v I Q } ",
"$.$.} } } V V I } $.$.,.f I I } t.} $.V - 6 I 6 V u.X $.v 4.w.I ",
"$.$.} } } } $.$.} $.$.3 u u $.} I I 6.6.V $.u.$.- w.  $.v 4.t.7."
};
