/* XPM */
static char *_d2bfe7be5954f2fb880d3a2d23f9678HU47kywEsKOlUL3q[] = {
/* columns rows colors chars-per-pixel */
"416 128 174 2 ",
"   c None",
".  c #A57627",
"X  c #AC7B29",
"o  c #B17F2A",
"O  c #B4812B",
"+  c #AE8032",
"@  c #B68637",
"#  c #B88837",
"$  c #B78839",
"%  c #BD8B39",
"&  c #C18E3A",
"*  c #C7933C",
"=  c #C8953F",
"-  c #AC8341",
";  c #B08743",
":  c #B48A44",
">  c #BB8F47",
",  c #BC9149",
"<  c #BA9251",
"1  c #BF995D",
"2  c #BF9C63",
"3  c #C49442",
"4  c #CA9C4E",
"5  c #C79747",
"6  c #C09755",
"7  c #CA9D52",
"8  c #C49D5A",
"9  c #C89F5C",
"0  c #C19852",
"q  c #CCA35E",
"w  c #CDA056",
"e  c #D0A75F",
"r  c #C19E64",
"t  c #C5A266",
"y  c #CDA663",
"u  c #CFA966",
"i  c #C7A369",
"p  c #CAA569",
"a  c #CEA96B",
"s  c #D1A760",
"d  c #D3A961",
"f  c #DAAD64",
"g  c #D3AD6E",
"h  c #DAAF6A",
"j  c #D6B06E",
"k  c #DBB16D",
"l  c #C8A771",
"z  c #CDAB73",
"x  c #CEAE7B",
"c  c #D2AE72",
"v  c #D0AF79",
"b  c #CFB07D",
"n  c #D5B174",
"m  c #DBB474",
"M  c #D4B37B",
"N  c #D9B67B",
"B  c #DAB87E",
"V  c #5639CA",
"C  c #5B3DD6",
"Z  c #752CCA",
"A  c #792BCB",
"S  c #732DC7",
"D  c #6633CC",
"F  c #7F2ED6",
"G  c #6D36D6",
"H  c #6A38D6",
"J  c #7A30D6",
"K  c #7238DF",
"L  c #7E31DD",
"P  c #763AE7",
"I  c #7539E8",
"U  c #7A3CF3",
"Y  c #3646C7",
"T  c #3346C9",
"R  c #3148CA",
"E  c #2250CA",
"W  c #3B4DDB",
"Q  c #374CD6",
"!  c #2B55DD",
"~  c #2353D6",
"^  c #2C57E2",
"/  c #2B5AE8",
"(  c #265BE8",
")  c #3B53E8",
"_  c #2B65FF",
"`  c #4541CA",
"'  c #4745D6",
"]  c #4944D6",
"[  c #4B48DE",
"{  c #4B46D9",
"}  c #5F41DF",
"|  c #4E4BE8",
" . c #504BE8",
".. c #534EF3",
"X. c #405BFF",
"o. c #5752FF",
"O. c #5851FF",
"+. c #6042E7",
"@. c #6142E8",
"#. c #6745F3",
"$. c #6B4AFF",
"%. c #7E41FF",
"&. c #8525CB",
"*. c #8922CA",
"=. c #8F29DE",
"-. c #9025D6",
";. c #9A22D6",
":. c #9526DB",
">. c #8430DE",
",. c #9D29E7",
"<. c #9C28E8",
"1. c #8932E7",
"2. c #8A32E8",
"3. c #9736FF",
"4. c #9136F8",
"5. c #A625E8",
"6. c #A42CF3",
"7. c #AC2EFF",
"8. c #B828FF",
"9. c #8240FF",
"0. c #CFB180",
"q. c #D4B583",
"w. c #D8B781",
"e. c #D7B886",
"r. c #DABA84",
"t. c #D7BA88",
"y. c #DABB88",
"u. c #D9BB88",
"i. c #DBBC8A",
"p. c #DEBE89",
"a. c #DBBE8C",
"s. c #DBBE8D",
"d. c #DCBE8D",
"f. c #DCBF8F",
"g. c #DBBD8B",
"h. c #DCBF90",
"j. c #E1BE85",
"k. c #E1BD83",
"l. c #E1BF88",
"z. c #DFC18F",
"x. c #DFC18D",
"c. c #DFC18E",
"v. c #DDC090",
"b. c #DEC293",
"n. c #DEC192",
"m. c #DEC395",
"M. c #DFC396",
"N. c #DFC497",
"B. c #DEC294",
"V. c #DFC498",
"C. c #DFC498",
"Z. c #E2C28E",
"A. c #E2C28C",
"S. c #E4C491",
"D. c #E2C697",
"F. c #E2C696",
"G. c #E1C595",
"H. c #E5C795",
"J. c #E2C696",
"K. c #E6C897",
"L. c #E6C897",
"P. c #E1C69B",
"I. c #E0C599",
"U. c #E1C79C",
"Y. c #E1C79D",
"T. c #E0C69B",
"R. c #E6C999",
"E. c #E7C999",
"W. c #E1C89D",
"Q. c #E1C89E",
"!. c #E2C89E",
"~. c #E2C99F",
"^. c #E2C89D",
"/. c #E3C99E",
/* pixels */
"                                                                                                                                                                                                                                                                                                                                                                                                                                                                                                                                g g d g g g g g g g g g g g g g g g g g d g g g g g g O >                                                                       g g g g g g g g g g g g g g g g g g f f g g g g g g d d d g g g g g g g d g d g g g g g g g g g f g g g g g g g g g d g d g g g g g g d d d g g g g g g f f g g g g g g g g g g g g g g g g g g ",
"                                                                                                                                                                                                                                                                                                                                                                                                                                                                                                                                g g d d f g f g g f f g g d d d d d d f d d g g g g g * O                                                                       g g g d d g d g g g g g g f f g f g d d g f g g g g d d g d g g g g g g g g g g f f g g g g f g g g f g g g g f f g g g g g g g g g d g d d g g g g f g d d g f g f f g g g g g g d g d d g g g ",
"          O > > > > > >                     > > > O > >             > > > > >                                     > > > > >             > > O > > >                     > > > > > > O                     O > > > > > >                 > > > > > > O                     O > > > > > >                     > > > O > >                     > > > O > >                 > > O > > >                     > > O > > >                     > > > > > > O               > > > > >                                     > > > > >     g g d d g g g g g g f g d d g g g g g g g g d d d g d g * O                                                                     g g d g d g d g g g g f g d d g g d d d g g f d g g g g g d d d g g g d d g g g g d g d d d g g g g g d d d g d g g g g d d g g d d d g g g g g d f g g d d d g g d d g f g g g g d g d g d g g ",
"        > > O * * > O * > > >           O > > * O O > > > > O > > O > > * * O O         > > O > > O > >         O O * * > > O > > O > > > > O O * > > O           > > > * O > * * O > >                 > > O * * > O * > > >     > > > * O > * * O > >                 > > O * * > O * > > >           O > > * O O > > > > O >         O > > * O O > > > > O > > O > > > > O O * > > O         > O > > > > O O * > > O           > > > * O > * * O > >         > O > > * * O O         > > O > > O > >         O O * * > > O > g g g g g g g g g g g g g g g d g g g g g g d d d g d g g * O O                                                                 d g d g g g g g g d f g g d d d g d g g g f g g g g g g g g g g g g d g g g g g g g g d d g f f f f f g d d g g g g g g g g d g g g g g g g g g g g f g g g d g d d d g g f d g g g g g g d g d ",
"      > > * g g g O * g * > * > > O > > O > * g g * * * * * > > O > * * g g g > O > > > * O * > > * O * > > > O > g g g * * > O > > * * * * * g g * > O > > O > > * > * g * O g g g * > >             > > * g g g O * g * > * > > * > * g * O g g g * > >             > > * g g g O * g * > * > > O > > O > * g g * * * * * > > > O > > O > * g g * * * * * > > > > * * * * * g g * > O > > O > > > * * * * * g g * > O > > O > > * > * g * O g g g * > >       O > * * g g g > O > > > * O * > > * O * > > > O > g g g * * > O g f d g g g g g g g d d g g g g f f f f g g f g f f d g d g * *                                                                 g g g g g g g g g g g f g g g d g g f f g f g g g g g g g g f g d g d d g g g g g g g g f g f f f f f g f g g g g g g g g d d g g f g g g g g g g g f g f f g g d g g g f g g g g g g g g g g g ",
"    O > * g g * * g g g f * g * O * * * g * f g g g g g g g O O g * g g g g g g * > * * d g g O O g g d * * > * g g g g g g * g O O g g g g g g g f * g * * * O * g * * d d g * * g g * > O         O > * g g * * g d d * * g * * g * * d d g * * g g * > O         O > * g g * * g g g f * g * O * * * g * f g g g g g g g O O O * * * g * f g g g g g g g O O O O g g g g g g g f * g * * * O O O g g g g g g g f * g * * * O * g * f g g g * * g g * > O     g * g g g g g g * > * * d g g O O g g d * * > * g g g g g g * g g f g g g g g g g g g g g g g d g g g g g d d g d g g g g g d g                                                                 d g g g g g g g g g g f g f f g g f d g g d d g g g g g g g f g g g g g g g g g g g g g g g g g g g g g g g g g g g g g g g g g g f g g g g g g g d d g g d f g g f f g f g g g g g g g g g g d ",
"    > O g g g g g g g d f g f g g * d g f g d d g g g g g g g d g d d g g g g g d * d d g f f f f f f g d d * d g g g g g d d g d g g g g g g g d d g f g d * g g f g g d d g g g g g g O >         > O g g g g g g d d g g f g g f g g d d g g g g g g O >         > O g g g g g g g d f g f g g * d g f g d d g g g g g g g d g * d g f g d d g g g g g g g d d g g g g g g g d d g f g d * g d g g g g g g g d d g f g d * g g f g f d g g g g g g g O >     g d d g g g g g d * d d g f f f f f f g d d * d g g g g g d d g g g g g g g g g g g d d g g d f g g g g g g g g g g g g d g d f                                                                 g g g g g g g g g g d d g g d f g d g g g g g g g g g g g g d d g g g g g g g g g g g g g g g g g g g g g g g g g g g g g g g g d d g g g g g g g g g g g g d g f d g g d d g g g g g g g g g g ",
"    > * g g g g g g g g d g g f g g g f g g g g g g g g g g g g g d g g g d d g g g d d f d f f f f d f d d g g g d d g g g d g g g g g g g g g g g g g f g g g f g g g f g g g g g g g * >         > * g g g g g g g f g g g f f g g g f g g g g g g g * >         > * g g g g g g g g d g g f g g g f g g g g g g g g g g g g g g g f g g g g g g g g g g g g g g g g g g g g g g g g f g g g g g g g g g g g g g g g f g g g f g g d g g g g g g g g * >     g d g g g d d g g g d d f d f f f f d f d d g g g d d g g g d g g f g g g g g g g g g g g g g d g g g g g g g g g d d g g g g f                                                                 g f g g g g g g g g g g g g g d g g g g g d d g g g g g g d d g g g g g d g g g g g g g f g f g g g f g f g g g g g g g d g g g g d d g g g g g g d d g g g g g d g g g g g g g g g g g g g f g ",
"    > * g g g g g g g d g g g d f g f d g g d d g g g g g g f g g g g g g d d g g g g f d d d f f d d d f g g g g d d g g g g g g f g g g g g g d d g g d f g f d g g g g g g g g g g g * >         > * g g g g g g g g g g g d d g g g g g g g g g g g * >         > * g g g g g g g d g g g d f g f d g g d d g g g g g g f g f g f d g g d d g g g g g g f g g f g g g g g g d d g g d f g f g f g g g g g g d d g g d f g f d g g g d g g g g g g g * >     g g g g g d d g g g g f d d d f f d d d f g g g g d d g g g g g d g g g g g g g g g g f g f f g g f g g f f g g g d g d g d f g                                                                 d g g g g g g g g g g f g f f g g f d g g d d g g g g g g g f g g g g g f g g d g d g f f g f g g g f g f f g d g d g g f g g g g f g g g g g g g d d g g d f g g f f g f g g g g g g g g g g d ",
"    > > O g g g g g g g g g g g d g d g g g g g g g g g g g g g g g g d g g g g g g d d g g g g g g g g d d g g g g g g d g g g g g g g g g g g g g g g g d g d g g g g g g g g g g g O > >         > > O g g g g g g g g g g g g g g g g g g g g g g O > >         > > O g g g g g g g g g g g d g d g g g g g g g g g g g g g d g d g g g g g g g g g g g g g g g g g g g g g g g g g g d g d g g g g g g g g g g g g g d g d g g g g g g g g g g g O > >     g g g d g g g g g g d d g g g g g g g g d d g g g g g g d g g g g g g g g g g g g g g f g g g d g g g g g g g g g d g d g d f g                                                                 g g g g g g g g g g d d g g d f g d g g g g g g g g g g g g d d g g g f g f f d g d g g g g f f g f f g g g g d g d f f g f g g d d g g g g g g g g g g g g d g f d g g d d g g g g g g g g g g ",
"    > O * g g g g g g f g d d g g g g g d d g f g g g g d d g g g g g f g g d g g g g g d g d g g d g d g g g g g d g g f g g g g g d d g g g g f g d d g g g g g d d g f g g g g g g * O >         > O * g g g g g g f g d d g g d d g f g g g g g g * O >         > O * g g g g g g f g d d g g g g g d d g f g g g g d d g g g g g g d d g f g g g g d d g g g g d d g g g g f g d d g g g g g g d d g g g g f g d d g g g g g d d g f g g g g g g * O >     g g g f g g d g g g g g d g d g g d g d g g g g g d g g f g g g d g d g g g g g g d f g g d d d g f g g f f f g g g d g g g g g                                                                 g f g g g g g g g g g g g g g d g g g g g d d g g g g g g d d g f g g g g g g g g g g d g g g g g g g g g d g g g g g g g g g g g d d g g g g g g d d g g g g g d g g g g g g g g g g g g g f g ",
"    > * g g d g d g f f g g d d d g d d d g g f f g g f d d g g g g f g f f d g d g g g g d f g g f d g g g g d g d f f g f g g g g d d f g g f f g g d d d g d d d g g f f g d g d g g * >         > * g g d g d g f f g g d d d d g g f f g d g d g g * >         > * g g d g d g f f g g d d d g d d d g g f f g g f d d g g d g d d d g g f f g g f d d g g g g d d f g g f f g g d d d g d g g d d f g g f f g g d d d g d d d g g f f g d g d g g * >     g g f g f f d g d g g g g d f g g f d g g g g d g d f f g f g g g g d g d g d g g g g f g d d g g f g g g g f g d g d g d f g d                                                                 g f d g g g g g g g d d g g g g g d g g g g g g g g g g g g f g f g f d d g f g g g g d d g g g g g g g d d g g g g f g d d f g g f g g g g g g g g g g g g d g g g g g d d g g g g g g g d f g ",
"      > * f f d g g g g g g g g g g g g g g g g g g g g g d g g g g g g g g g g g g d g d g g g g g g d g d g g g g g g g g g g g g d g g g g g g g g g g g g g g g g g g g g g d f f * >             > * f f d g g g g g g g g g g g g g g g g d f f * >             > * f f d g g g g g g g g g g g g g g g g g g g g g d g g g g g g g g g g g g g g g d g g g g d g g g g g g g g g g g g g g g d g g g g g g g g g g g g g g g g g g g g g d f f * >       g g g g g g g g g g d g d g g g g g g d g d g g g g g g g g g g g g g d d g d g g g g g g f f g g f g g g g g g d g g g g d f g                                                                 g g g g g g g g g g g g g g g d d g g d d g f g g g g g d g f g g g f d d g f d g g g g d g g g g g g g d g g g g d f g d d f g g f g d g g g g g f g d d g g d d g g g g g g g g g g g g g g g ",
"      > > * g g g g f f f g g g g g g g g g f f f g g f f g f g g f d d g f g g g g d d g g d g g d g g d d g g g g f g d d f g g f g f f g g f f f g g g g g g g g g g g d g g g g * > >             > > * g g g g d g g g g g g g g g g d g g g g * > >             > > * g g g g f f f g g g g g g g g g f f f g g f f g f g g g g g g g f f f g g f f g f g g f g f f g g f f f g g g g g g g f g f f g g f f f g g g g g g g g g f f f g g g g * > >       g f d d g f g g g g d d g g d g g d g g d d g g g g f g d d f g g g g g g g g g g g g g g g g g g f g g f f f g d d g g g g f g                                                                 g g d d g g g g g g f g d d g g g d d d g g f d g g f f d g g g g g g g d d g f d g d g d g g g g g g g d g d g d f g d d g g g g g g d f f g g d f g g d d d g g g d d g f g g g g g g d d g g ",
"      > * g f g g g g g f g g g g f g g g g f g g g g f f g g g g f d d g f d g g g g d g g d d d d g g d g g g g d f g d d f g g g g f f g g g g f g g g g f g g g g g d d g g g f g * >             > * g f g g g d d g g g g g g g g d d g g g f g * >             > * g f g g g g g f g g g g f g g g g f g g g g f f g g g g f g g g g f g g g g f f g g g g g g f f g g g g f g g g g f g g g g f f g g g g f g g g g f g g g g f g g g g g f g * >       g f d d g f d g g g g d g g d d d d g g d g g g g d f g d d f g g f g g g g d d g f f f g g f g g g d g g g g g g g g g g g g g                                                                 g g d d f g f g g f f g g d d d g g g g g g g d g g g g g d d g g g f g g g g g g g d g g g g f g f g g g g d g g g g g g g f g g d d g g g g g d g g g g g g g d d d g g f f g g f g f d d g g ",
"        > * g f d g g g g g g g g g g g g g g g g g g f f g g f g g g d d g f d g d g d g g g d d g g g d g d g d f g d d g g g f g g f f g g g g g g g g g g g g g g g d g g d f g * >                 > * g f d g g d g g g g g g g g d g g d f g * >                 > * g f d g g g g g g g g g g g g g g g g g g f f g g f g g g g g g g g g g g f f g g f f g g f f g g g g g g g g g g g f g g f f g g g g g g g g g g g g g g g g g g d f g * >         g g g d d g f d g d g d g g g d d g g g d g d g d f g d d g g g g f d g g g g d g g g g g g f g g g d d f g f g g f f g g d d d                                                                 g g d g g g g g g g g g g g g g g g g g g f f d g g f f f g g g g g g d d g f d g d g d g g g g g g g g d g d g d f g d d g g g g g g f f f g g d f f g g g g g g g g g g g g g g g g g g d g g ",
"        > O g g f d g g f g g g g g g g g g f f f g g f f g f g g g f g g g g g g g d g g g g f g f g g g g d g g g g g g g f g g f g f f g g f f f g g g g g g g g g g d g d f g g O >                 > O g g f d g d g g g g g g g g d g d f g g O >                 > O g g f d g g f g g g g f g g f f f g d d g g g g f g g f g g f f f g d d g g g g f g g f g g g g d d g f f f g g f g g f g g g g d d g f f f g g f g g g g f g g d f g g O >         g f g g g g d d g f f f g g f g g f g g f f f g d d g g g g f g d g f d g d g d g f g g g g f g g g d d g g g g g g f g d d g g                                                                 g f g f f g f g g f f f g g g g g f g g f f f g d d g g g g f g d g g d d g f d g d g d g g g d d g g g d g d g d f g d d g g g g f g g g g d d g f f f g g f g f f g f f f f g g f g f f g f g ",
"        O * * g g g f f f g g g g g g g g g g g g g g g g d g g g g g g d d g f d g d g d g g d d g g g d g d g d f g d d g g g g g d g g g g g g g g g g g g g g g g g g g g g g * * O                 O * * g g g g g g g g g g g g g g g g g g * * O                 O * * g g g f f f g g g g f g g g g g g d g g g g d f g g f g g g g g g d g g g g d f g g f d g g g g d g g g g g g f g g f d g g g g d g g g g g g f g g g g f f f g g g * * O         g f d g g g g d g g g g g g f g g f g g g g g g d g g g g d f g g g g g g d g g g f f f g g f g g g g g g g g g g g g g g g g d                                                                 f g g f f g f g g g g g g g g g g f g g g g g g d g g g g d f g d f d d g f d g g g g d g g d d d d g g d g g g g d f g d d f g g f d g g g g d g g g g g g f g f f g g g g g g g f g f f g g f ",
"        > * d g f d g g g g g g g g d d d g g f f g g f d d g g g g f d d g f d g g g g d g g g g g g g d g g g g d f g d d f g g g d d f g g f f g g d d d g g g g g g d g d f g d * >                 > * d g f d g d g g g g g g g g d g d f g d * >                 > * d g f d g g g g g g g f g g g g f g d g d g d f g d g f g g g g f g d g d g d f g d d g f d g d g d g f g g g g f g d g f d g d g d g f g g g g f g g g g g g g d f g d * >         d g f d g d g d g f g g g g f g g f g g g g f g d g d g d f g d d g f d g d g d g f g g g g f g g g d d g g g g g g f g d d g g                                                                 g g g f f g f g g g g f g g g g g f g g g g f g d g d g d f g d d f d d g f g g g g d d g g d g g d g g d d g g g g f g d d f g d g f d g d g d g f g g g g f g f f g g f g g g g f g f f g g g ",
"        > * g f d g f f g g d d d g g g d d g f g g g g d d g g f g f d d g f g g g g d d g g g g g g g d d g g g g f g d d f g g g d d g g g g f g d d g g g d d d g g d g g d f g * >                 > * g f d g g d g g d d d d g g d g g d f g * >                 > * g f d g f f g g d d g f g g f f f g g g d g g g g g g f g g f f f g g g d g g g g g g g g g g d g g g f f f g g f g g g g g g d g g g f f f g g f g d d g g f f g d f g * >         g g g g g d g g g f f f g g f g g f g g f f f g g g d g g g g g g g g g g d g g g f f f g g f g g g g g g g g g g g g g g g g d                                                                 g f g f f g f g g f f f g g g g g f g g f f f g g g d g g g g g g g g g g g g g g g d g d g g g g g g d g d g g g g g g g g g g g g g g g d g g g f f f g g f g f f g f f f f g g f g f f g f g ",
"      O O g f g g g g f g d d g g d d g g g g g g g g g g g g g f g g g g g g g g g g d g g g g g g g g g d g g g g g g g g g g g g g g g g g g g g g g g d d g g d d g d d g g g f g O O             O O g f g g g d d g d d g g d d g d d g g g f g O O             O O g f g g g g f g d d g g g g g g g g g g d g d g d f g g g g g g g g g g d g d g d f g g f d g d g d g g g g g g g g g g f d g d g d g g g g g g g g g g d d g f g g g g f g O O       g f d g d g d g g g g g g g g g g g g g g g g g g d g d g d f g g f d g d g d g g g g g g g g g g f d g g g g g g g d d g g g g                                                                 g g d g g g g g g g g g g g g g g g g g g g g g g d g d g d f g d g f g f f d g d g g g g d f g g f d g g g g d g d f f g f g g g f d g d g d g g g g g g g g g g g d g g g g g g g g g g d g g ",
"      > > * g g g g g g g g g g d g g g g g d d g g g g g d f g g g g f g f f d g d g g g g f f g f f g g g g d g d f f g f g g g f d g g g g g d d g g g g g d g g g g g d g g g g * > >             > > * g g g g d g g g g g g g g g g d g g g g * > >             > > * g g g g g g g g g g g f g g f f g g g d g d g d f g g f g g f f g g g d g d g d f g g f d g d g d g g g f f g g f g g f d g d g d g g g f f g g f g g g g g g g g g g g * > >       g f d g d g d g g g f f g g f g g f g g f f g g g d g d g d f g g f d g d g d g g g f f g g f g g f g g g g g g g g g g g g g d                                                                 g g d d f g f g g f f g g d d d g f g g f f g g g d g d g d f g d g g f g g d g g g g g d g d g g d g d g g g g g d g g f g g g g f d g d g d g g g f f g g f g f d d g g f f g g f g f d d g g ",
"    > > * f d g d g g d d g g g g g d g g g g g g g g g g g f g g g g g f g g d g d g f f g f g g g f g f f g d g d g g f g g g g f g g g g g g g g g g g d g g g g g g g g g d g d f * > >         > > * f d g d g g g g g g g g g g g g g g d g d f * > >         > > * f d g d g g d d g g g g g g g g f g d g d g g g g d f g g g g g f g d g d g g g g d f f d g g g g d g d g f g g g g g f d g g g g d g d g f g g g g g g g g d d g g d g d f * > >     f d g g g g d g d g f g g g g g g g g g g f g d g d g g g g d f f d g g g g d g d g f g g g g g g g g g g g g g g g d d g g d f                                                                 g g d d g g g g g g f g d d g g g g g g g f g d g d g g g g d f g g g d g g g g g g d d g g g g g g g g d d g g g g g g d g g g f d g g g g d g d g f g g g g g g d d g g f g g g g g g d d g g ",
"    > * g g d g d g g g g g g g d g f d g g d d g g g g g g g g g g g g d g g g g g g g f g f g g g f g f g g g g g g g d g g g g g g g g g g g d d g g d f g d g g g g f f g d g d g g * >         > * g g d g d g f f g g g g g g g g f f g d g d g g * >         > * g g d g d g g g g g g g g g g g g g g g g d d g g g g f g g g g g g g g g d d g g g g f f g g g g d d g g g g g g g g g f g g g g d d g g g g g g g g g g g g g g g g d g d g g * >     f g g g g d d g g g g g g g g g g g g g g g g g g d d g g g g f f g g g g d d g g g g g g g g g d g g g g g g g g g g f g f f g                                                                 g g g g g g g g g g g g g g g d g g g g g g g g g d d g g g g f g g g g g d d g g g g f d d d f f d d d f g g g g d d g g g g g f g g g g d d g g g g g g g g g g g g g g g g g g g g g g g g g ",
"    > O g g g g g g g d d g g d f g g f f g f g g g g g g g g d g g g g g g g g g g g g g g g g g g g g g g g g g g g g g g g g d g g g g g g g g f g f f g g f d g g g f g g g g g g g O >         > O g g g g g g g f g g g d d g g g f g g g g g g g O >         > O g g g g g g g d d g g d g g g g g d d g d g d g g g g g g g g g g d d g d g d g g g g g g g g g g d g d g d d g g g g g g g g g g d g d g d d g g g g g d g g d d g g g g g g g O >     g g g g g d g d g d d g g g g g g g g g g d d g d g d g g g g g g g g g g d g d g d d g g g g g g f g g g g g g g g g g g g g d                                                                 g f d g g g g g g g d d g g g g g g g g g d d g d g d g g g g g g d g g g d d g g g d d f d f f f f d f d d g g g d d g g g d g g g g g g d g d g d d g g g g g g g d f d d g g g g g g g d f g ",
"    O O * g g g g g g g f g f f g g d g g g f g g g g g g g g g g g g g g g g g g g g g g g g g g g g g g g g g g g g g g g g g g g g g g g g g g f g g g d g g f f g g g g g g g g g * O O         O O * g g g g g g g g g f f f f g g g g g g g g g * O O         O O * g g g g g g g f g f f g g g g g g g g g g g g d g d f g g g g g g g g g g g g d g d f f d g d g g g g g g g g g g g g f d g d g g g g g g g g g g g g f f g f g g g g g g g * O O     f d g d g g g g g g g g g g g g g g g g g g g g g g g g d g d f f d g d g g g g g g g g g g g g g g g g g g g g g g d d g g d f                                                                 g f g g g g g g g g g g g g g d g g g g g g g g g g g g d g d f f d d g g g g g d * d d g f f f f f f g d d * d g g g g g d d g f d g d g g g g g g g g g g g g g g g f g g g g g g g g g g f g ",
"    > > * g g g g g g g f g g g d g d d d g g f d g g g g d g d d g d d g g g g g g g g f g f f f f f g f g g g g g g g g d d g d g d g g g g d f g g d d d g d g g g g g g g g g g g * > >         > > * g g g g g g g g g g g g g g g g g g g g g g * > >         > > * g g g g g g g f g g g g g g g g d d g d g g g g g d g g g g g g d d g d g g g g g d g g d g g g g g d g d d g g g g g g d g g g g g d g d d g g g g g g g g f g g g g g g g * > >     g d g g g g g d g d d g g g g g g g g g g d d g d g g g g g d g g d g g g g g d g d d g g g g g d g g g g g g g g g g f g f f g                                                                 g g g g g g g g g g d d g g d f g g g g g d d g d g g g g g d g g * g g g g g g * > * * d g g O O g g d * * > * g g g g g g * g g d g g g g g d g d d g g g g g g g g g d d g g g g g g g g g g ",
"    > > * g g g g g d f g g d d d g g d d g f g g g g d g d g g g g d g g g g g g g g d d g f f f f f g d d g g g g g g g g d g g g d g d g g g g f g d d g g d d d g g f g g g g g g * > >         > > * g g g g g g f g g d d d d g g f g g g g g g * > >         > > * g g g g g d f g g d d f f f f g g f g f f d g d g * * f f f f g g f g f f d g d g * * * * g d g d f f g f g g f f f f * * g d g d f f g f g g f f f f d d g g f d g g g g g * > >     * * g d g d f f g f g g f f f f f f f f g g f g f f d g d g * * * * g d g d f f g f g g f f f f g g g g g g g g g g g f g g g d                                                                 d g g g f f f f f g g f g f f g f f f f g g f g f f d g d g * * O > * * g g g > O > > > * O * > > * O * > > > O > g g g * * > O * * g d g d f f g f g g f f f f f g g g f g g f f f f f g g g d ",
"      > * g g g g g g g f g d d g f g f f g g g g g g d d g g g g g g d d g g g g d g d d d g g g g g d d d g d g g g g d d g g g g g d d g g g g g g f f g f g d d g g d d g g g g g * >             > * g g g g g d d g g d d d d g g d d g g g g g * >             > * g g g g g g g f g d d g g g g g g d d d g d g g * O O g g g g g g d d d g d g g * O O O O * g g d g d d d g g g g g g O O * g g d g d d d g g g g g g d d g f g g g g g g g * >       O O * g g d g d d d g g g g g g g g g g g g d d d g d g g * O O O O * g g d g d d d g g g g g g d g d g g g g g g d f g g d d d                                                                 g g g g g g g g g g g d d d g d g g g g g g d d d g d g g * O O > O > > * * O O         > > O > > O > >         O O * * > > O > O O * g g d g d d d g g g g g g g g g g d g g g g g g g g g g g ",
"      > * g g g g g g g g g f f g g g g g g g g g g g g g g g g g g g g g g g g f f g g g g f g g g f g g g g f f g g g g g g g g g g g g g g g g g g g g g g g f f g d d d g g g g g * >             > * g g g g g d d d g f f f f g d d d g g g g g * >             > * g g g g g g g g g f f g g g g g g d d d g d g * O     g g g g g g d d d g d g * O         O * g d g d d d g g g g g g     O * g d g d d d g g g g g g f f g g g g g g g g g * >           O * g d g d d d g g g g g g g g g g g g d d d g d g * O         O * g d g d d d g g g g g g g g d g d g d g g g g f g d d g                                                                 g g g g g g g g g g g d d d g d g g g g g g d d d g d g * O         > > > > >                                     > > > > >         O * g d g d d d g g g g g g g g g g d g g g g g g g g g g g ",
"      O > O g g f g g g g g g g g g g g f f g g g g g d g g g g g g g g d g d g g g g g g g g g f g g g g g g g g g d g d g g g g g g g d g g g g g f f g g g g g g g g g g g f g g O > O             O > O g g f g g g g g g g g g g g g g g f g g O > O             O > O g g f g g g g g g g d d d f d d g g g g g * O       d d d f d d g g g g g * O             O * g g g g g d d f d d d       O * g g g g g d d f d d d g g g g g g g f g g O > O             O * g g g g g d d f d d d d d d f d d g g g g g * O             O * g g g g g d d f d d d g g g d d g d g g g g g g f f g                                                                 g g d d d d d d f d d g g g g g d d d f d d g g g g g * O                                                                             O * g g g g g d d f d d d d d d g g d d f d d d d d d g g ",
"      > > O d g g g g g g g g g g g g g g g g g g g g g g g g g f f g g g g g g g g g g g d g g g g g g d g g g g g g g g g g g g g g g g g g g g g g g g g g g g g g g g g g g g d O > >             > > O d g g g g g g g g g g g g g g g g g g d O > >             > > O d g g g g g g g g g g g g g d g g g g g g O >       g g g g d g g g g g g O >             > O g g g g g g d g g g g       > O g g g g g g d g g g g g g g g g g g g g d O > >             > O g g g g g g d g g g g g g g g d g g g g g g O >             > O g g g g g g d g g g g g g g g g g g g g g g g g g g g                                                                 g g g g g g g g g d g g g g g g g g g g d g g g g g g O >                                                                             > O g g g g g g d g g g g g g g g g g d g g g g g g g g g ",
"      > O g g g g g g g g g f f g f g f f g g g g g g d d g g g g f g g g g g g g g g g g d g f g g f g d g g g g g g g g g g g g g g d d g g g g g g f f g f g f f g g g g g g g g g O >             > O g g g g g g g g g f f f f g g g g g g g g g O >             > O g g g g g g g g g f f g f g g f f f g d d g g g g f g g f g g f f f g d d g g g g f g g f g g g g d d g f f f g g f g g f g g g g d d g f f f g g f g f f g g g g g g g g g O >       g g d g g g g g g g g g g g g g g g d g g g g g g g g g g g g g       > O g g g g g g d g g g g g g g g g g g g g g g g g d g g                                                                 g g g g g g g g g g g g g g g g g g g g g g g g g g g O >                                                                             > O g g g g g g g g g g g g g g g f f g g g g g d g g g g ",
"      O > * d d g g g g f g d d g g g d d g f g g g g d g d g g g g g g d g d g g g g g g g g g f f g g g g g g g g g d g d g g g g d g d g g g g f g d d g g g d d g g g g g g d d * > O             O > * d d g g g g g g d d d d g g g g g g d d * > O             O > * d d g g g g f g d d g f g g g g g g d g g g g d f g g f g g g g g g d g g g g d f g g f d g g g g d g g g g g g f g g f d g g g g d g g g g g g f g s d g f g g g g d d * > O       g g d d f g f g g f f g g d d d g g d d f g f g g f f g g d d d       O * g g g g g d d f d d d d d d g g f f g g f g f d d g g                                                                 g g g d d g g g g g g f f g f g g g g g g g g g d d * > O                                                                             O > * d d g g g g g g g g g g g g g g g g g g g g g g g g ",
"    > > * g d g g g d f g g d d d g d d d g g f d g g g g d g d g g g g g g g g f f g g g g f g g g g f g g g g f f g g g g g g d g d g g g g d f g g d d d g d d d g g f g g g g d g * > >         > > * g d g g g g f g g d d d d g g f g g g g d g * > >         > > * g d g g g d f g g d d g f g g g g f g d g d g d f g d g f g g g g f g d g d g d f g d d g f d g d g d g f g g g g f g d g f d g d g d g f g g g g f g s s g g f d g g g d g * > >     g g d d g g g g g g f g d d g g g g d d g g g g g g f g d d g g     O * g d g d d d g g g g g g g g d d g f g g g g g g d d g g                                                                 g g d g d g g g g f g d d g g g g f f g g g g g g d g * > >                                                                         > > * g d g g g g g g f f g g f g f f g g g g g g d d g g g ",
"    > > * g g g g d g g f g g g d g d g g g f g g g g g g g g g g g g d d g g g g d g d d d g g g g g g d d d g d g g g g d d g g g g g g g g g g f g g g d g d g g g g g f d g g g g * > >         > > * g g g g d f g g g g g g g g g g f d g g g g * > >         > > * g g g g d g g f g g g g f g g f f f g g g d g g g g g g f g g f f f g g g d g g g g g g g g g g d g g g f f f g g f g g g g g g d g g g f f f g g m n.f.g g d g g d g g g g * > >     g g g g g g g g g g g g g g g d g g g g g g g g g g g g g g g d O O * g g d g d d d g g g g g g d g g g g g g g g g g g g g g g                                                                 d g d g g g g d f g g d d d g d g d d g f g g g g g g * > >                                                                         > > * g g g g g g f g d d g d g g d d g f g g g g d g d g g ",
"    > * g g g g g g g g f g f f g g g f f g f g g g g g g g g d g g d g g g g g g g g d d g f f f f f f g d d g g g g g g g g d d g g g g g g g g f g f f g g g f f g g f g g g g g g g * >         > * g g g g g g g f g g f f f f g g f g g g g g g g * >         > * g g g g g g g g f g f f g g g g g g g g g d g d g d f g g g g g g g g g g d g d g d f g g f d g d g d g g g g g g g g g g f d g d g d g g g g g N M.~.~.S.d a d a g g g g g g g * >     g f d g g g g g g g d d g g g g g f d g g g g g g g d d g g g g * * g d g d f f g f g g f f f f g g g g d d g g g g g g g d f g                                                                 g g g g g g g g g f g g g d g d d d d g g f d g g g g g * >                                                                         > * g g g g g d f g g d d d d g d d d g g f d g g g g d g d ",
"    > * g g g d d g g d d g g d f g f d g g d d g g g g g g g g d g d d g g g g g g g g f g f f f f f f g f g g g g g g g g d d g g g g g g g g d d g g d f g f d g g g f g g d d g g g * >         > * g g g d d g g f g g g d d g g g f g g d d g g g * >         > * g g g d d g g d d g g d g f g g f f g g g d g d g d f g g f g g f f g g g d g d g d f g g f d g d g d g g g f f g g f g g f d g d g d g g g m Z.~.~.E.~.c.a a q q a g s s g g g * >     g f g g g g g g g g g g g g g d g f g g g g g g g g g g g g g d g d g g g g g d g d d g g g g g d g g g g g g g g g g g g g f g                                                                 d g g g g g g g g f g f f g g g d g g g f g g d d g g g * >                                                                         > * g g g d g g g f g g g d g g d g g g f g g g g g g g g g ",
"    > O g g g d d g g g g g g g d g d g g g g g g g g g g g f g g g g g g g g g g g g g g g g g g g g g g g g g g g g g g g g g g f g g g g g g g g g g g d g d g g g g d d g d d g g g O >         > O g g g d d g d d g g g g g g g g d d g d d g g g O >         > O g g g d d g g g g g g g g g g g g f g d g d g g g g d f g g g g g f g d g d g g g g d f f d g g g g d g d g f g g g g g f d g g g g d g n N.E.~.~.~.~.~.V.p p a a a a e s g g g O >     g g g g g g g g g g d d g g d f g g g g g g g g g g d d g g d f f d g d g g g g g g g g g g g g f d g g d d g g g g g g g g g g                                                                 g g g g g g g g d d g g d f g f g f f g f g g d d g g g O >                                                                         > O g g g d d g g f g f f g f g g f f g f g g g g g g g g d ",
"      O > g g g g g g d d g g g g g g g g g d d g g g g g d f g g g g g g g g g g g g g g g g g g g g g g g g g g g g g g g g g g f d g g g g g d d g g g g g g g g g g g g g g g g g > O             O > g g g g g g g g g g g g g g g g g g g g g g > O             O > g g g g g g d d g g g g g g g g g g g g d d g g g g f g g g g g g g g g d d g g g g f f g g g g d d g g g g g g g g g f g g g g d m G.~.I.N.Y.~.~.~.~.V.p p q q a a a g g g > O       d g g g g g g g g g g f g f f g d g g g g g g g g g g f g f f g g g g g g d g d g d d g g g g g g f f g f g g g g g g g g M M d                                                                 g f g g g g g g g g g g g d g d f d g g d d g g g g g > O                                                                             O > g g g d g d d g g d f d g f d g g d d g g g g g g g g ",
"        O * d g g g g g g g g g d d d g g g g g g g g g g g g g g g g g d g g g g g g g f g f g g g g f g f g g g g g g g d g g g g g g g g g g g g g g g d d d g g g g d g g g g d * O                 O * d g g g g d g g g g g g g g d g g g g d * O                 O * d g g g g g g g g g g g g g g d d g d g d g g g g g g g g g g d d g d g d g g g g g g g g g g d g d g d d g g g g g g g g g g d r.B n e q N I.~.~.~.V.t t p p p a a g s * O         g f g g g g g g g g g g g g g d g f g g g g g g g g g g g g g d f g g g g d d g g g g g g g g g d g g g g g g g g g c u.I.~.k.g                                                                 g f d g g g g g d d g g g g g g d g g g g g g g g d * O                                                                                 O * d g g g g g g g g d g g d g g g g g g g g g g g f g ",
"        > > * g g g g f g d d g g g g g d d g f g g g g d d g g g g g g f g g d g d g f f g f g g g g f g f f g d g d g g f g g g g d d g g g g f g d d g g g g g d d g g g g g g * > >                 > > * g g g g g g d d g g d d g g g g g g * > >                 > > * g g g g f g d d g g g g g g g g g g g g g d g d f g g g g g g g g g g g g d g d f f d g d g g g g g g g g g g g g f d g d g g g g g a a a n.~.~.~.N.8 8 t q p a a a * > >         g g g g g g g g g g d d g g d f g g g g g g g g g g d d g g d f f d g g g g d g d g f g g g g g f d g g d d g g n f.Y.~.n.M g g                                                                 g g g g g g g g g g g g g d d d g g g g d g g g g * > >                                                                                 > > * g g g g d g g g g d g g g g g d d g g g g g d f g ",
"        > * d d g d f f g g d d d g d d d g g f f g g f d d g g g g g f g f f d g d g g g g f f g g f f g g g g d g d f f g f g g g d d f g g f f g g d d d g d d d g d g g d g d d * >                 > * d d g d g g d g d d d d g d g g d g d d * >                 > * d d g d f f g g d d g g g g g d d g d g g g g g d g g g g g g d d g d g g g g g d g g d g g g g g d g d d g g g g g g d g g g g g s g q q a s.~.~.~.c.8 t t q q q a q e * >         d g g g g g g g g g g f g f f g d g g g g g g g g g g f g f f g g f d g d g d g g g f f g g f g g f f g f g n f.Y.~.M.N a a a q                                                                 g g d d g g g g f g d d g g g g d g g g g g g g d d * >                                                                                 > * d d g g g g g g g d g d d g g g g g g g g g g g g g ",
"        > * d d f d g g g g g g g g g g g g g g g g g g g d g g f g g g g g g g g g g d g g g g g g g g g g d g g g g g g g g g g g d g g g g g g g g g g g g g g g g g g g d f d d * >                 > * d d f d g g g g g g g g g g g g d f d d * >                 > * d d f d g g g g g g f f f f g g f g f f d g d g * * f f f f g g f g f f d g d g * * * * g d g d f f g f g g f f f f * * g s g s f f g d a a j.E.E.E.V.r r t t p q d q e * >         g g g g g g g g g g g f g g g d g g g g g g g g g g g f g g g d g f d g d g d g g g g g g g g g d g g g f r.Y.~.Y.r.a a a a a a                                                                 g g d d f g g f f g g d d d g d g g d d g g d f d d * > >                                                                             > > * d d g d g g d d g g d g g g d d g f g g g g d d g g ",
"      > * d g f d g f f f g g g g g g g g g f f f g g f f g f g f g f d d g f g g g g d d g g g g g g g g d d g g g g f g d d f g f g f f g g f f f g g g g g g g g g d g d g d f g d * >             > * d g f d g d g d g g g g g g d g d g d f g d * >             > * d g f d g f f f g g g g g g g g g d d d g d g g * O O g g g g g g d d d g d g g * O O O O * g g d g d d f f.~.~.~.n.v o o * g g s g s e q a a f.~.~.~.V.r r q q q p q d g s * >       d g d g g g g g g d f g g d d d d g d g g g g g g d f g g d d d g g g g g d g g g f f f g g f g d d d M n.E.G.M.M a a a a q a q                                                                 g g d g g g g g g g g g g g g g d d d g g g d d f g d * >                                                                             > * d g f f d g g g d d d g g d d d g g f f g g f d d g g ",
"      > O g f d d g g g f g g g g f g g g g f g g g g f f g g g g g f d d g f d g g g g d g g g g g g g g d g g g g d f g d d f g g g f f g g g g f g g g g f g g g g g d g g d d f g O >             > O g f d d g g d g g g g g g g g d g g d d f g O >             > O g f d d g g g f g g g g g g g g g d d d g d g * O     g g g g g g d d d g d g * O         O * g d g d d B ~.~.~.~.~.f.    X * a e g q e q a a f.~.~.~.V.r r 9 t t p q q d g O >       g g d g d g d g g g g f g d d g g g d g d g d g g g g f g d d g d g f d g d g d g f g g g g f g g d m I.E.~.y.a a q a q a q a a                                                                 g f g f f g g f f f g g g g g g g g g d g d g d d f g O >                                                                             > O g f d d g d g d g g g g g g g g g g g g g g g g d g g ",
"      O * g f f d g g g g g g g g g g g g g g g g g g f f g g f g g g g d d g f d g d g d g g g g g g g g d g d g d f g d d g g f g g f f g g g g g g g g g g g g g g g f d g d f f g * O             O * g f f d g d f g g g g g g g g f d g d f f g * O             O * g f f d g g g g g g g d d d f d d g g g g g * O       d d d f d d g g g g g * O             O * g g g g n.G.G.E.G.G.c.      X * a g g g a q q j.G.G.G.V.r r r t t p q d d g * O       g g g d d g d g g g g g g f f g g g g d d g d g g g g g g f f g g f d g g g g d g g g g g g f g g k.L.~.Y.r.a a a q p q q a a a                                                                 g g g f f g g g g f g g g g f g g g g g d g g d f f g * O                                                                             O * g f f d g g d g g g g g g g g g g f f f g g f f g f g ",
"      > > O f f f g g g g g g g g f g g g g f g g g g f f g g g g g f g g g g g g g d g g g g f g g f g g g g d g g g g g g g f g g g f f g g g g f g g g g f g g g g g g g g f f f O > >             > > O f f f g g g g g g g g g g g g g g f f f O > >             > > O f f f g g g g g g g g g g g d g g g g g g O >       g g g g d g g g g g g O >             > O g g g g n.~.G.~.~.~.M.      : X a a a g g a q s.~.~.~.V.r r r t t p s d d o > >       g g g g g g g g g g g g g g g g g g g g g g g g g g g g g g g g g f g g g g d d g f f f g g f c n.~.~.Y.r.a a p p p p p a a a a                                                                 f g g f f g g g g g g g g g g g g d d g f d g f f f O > >                                                                             > > O f f d g d f g d d g g f g g g g f g g g g f f g g g ",
"      > > O f f f g g g f g g g g g g g g g f f f g g f f g f g d g g f g g g g g g g d g g g g f g f g g g g d g g g g g g g f g f g f f g g f f f g g g g g g g g g g g g g f f f O > >             > > O f f f g g g g g g g g g g g g g g f f f O > >             > > O f f f g g g f g g g g g g g d g g g g g g O >       g g g g d g g g g g g O >             > O g g g g y.~.G.~.~.~.s.      : X a a g g g a q s.~.~.~.V.r r 9 t t p s d d o > >       g f g g g g d d g f f f g g f g g f g g f f f g d d g g g g f g g g g g g g g g g g g g g d n n.~.E.I.w.s s s p q q p p a a d a                                                                 g g g f f g g g g f g g g g f g d d g g g g g f f f O > >                                                                             > > O f f f g g g g g d d g g g g g g g g g g g f f g g f ",
"      O * g f f d g f f f g g g g g g g g g g g g g g g g d g g f g g g g d d g f d g d g d g g g g g g g d g d g d f g d d g g g g d g g g g g g g g g g g g g g g g g f d g d f f g * O             O * g f f d g d f g g g g g g g g f d g d f f g * O             O * g f f d g f f f g g g d d d f d d g g g g g * O       d d d f d d g g g g g * O             O * g g g g c r.G.E.G.i.u       X & a a g g g q q j.G.G.G.V.r r q q q p q d d g * O       g f d g g g g d g g g g g g f g g f g g g g g g d g g g g d f g d d d g g f f g g f g f d d n.~.~.L.r.p p p p p q p p p a q d a                                                                 g f g f f g g f f f g g g g g g d d g g g g g d f f g * O                                                                             O * g f f f g g g g g d d g f g g g g f g g g g f f g g g ",
"      > O g f d d g g g g g g g g g d d d g g f f g g f d d g g g g g f d d g f d g g g g d g g g g g g g d g g g g d f g d d f g g d d f g g f f g g d d d g g g g g g d g g d d f g O >             > O g f d d g g d g g g g g g g g d g g d d f g O >             > O g f d d g g g g g g g g g g g g g d d d g d g * O     g g g g g g d d d g d g * O         O * g d g d s e a a p p p t     X % a q a e s s g a f.~.~.~.V.r r t t t p q q d g O >       d g f d g d g d g f g g g g f g g f g g g g f g d g d g d f g d g g d d g f g g g g g g d i.~.~.~.k.p p p p q p q p q a q d a e                                                                 g g d g g g g g g g g g g g g g g d d g f d g d d f g O >                                                                             > O g f d d g d f g d d g g g g g g g f f f g g f f g f g ",
"      > * d g f d g f f g g d d d g g g d d g f g g g g d d g g f f g f d d g f g g g g d d g g g g g g g d d g g g g f g d d f g g d d g g g g f g d d g g g d d d g d g d g d f g d * >             > * d g f d g d g d g d d d d g d g d g d f g d * >             > * d g f d g f f g g d d g g g g g g d d d g d g g * O O g g g g g g d d d g d g g * O O O O * g g d g d s e a a p p p t X X % p a q a e s s g a s.~.~.~.c.8 r t q q p q d g s * >       g g g g g d g g g f f f g g f g g f g g f f f g g g d g g g g g d g g g g g g g g g g g f.~.~.~.f.s p p q q q p p p q a a a g g                                                                 g g d d f g g f f g g d d d g g g g g g d g g d f g d * >                                                                             > * d g f d g g d g g g g g g g g g g g g g g g g g d g g ",
"        > * d d f d g f g d d g g d d g g g g g g g g g g g g g g f g g g g g g g g g g d g g g g g g g g g d g g g g g g g g g g g g g g g g g g g g g g d d g g d d g g g d f d d * >                 > * d d f d g g g d d g g d d g g g d f d d * >                 > * d d f d g f g d d g f f f f g g f g f f d g d g * * f f f f g g f g f f d g d g * * * * g d g d f f g d a a s e q q % % p q a q d d g f g a j.E.E.E.V.8 8 t q t q s q e * >         g f d g d g d g g g g g g g g g g g g g g g g g g d g d g d f g g g g g d d g g g g g u.~.G.E.M.c p p p p p p p p q a q a e f g                                                                 g g d d g g g g f g d d g g g d g g g d g d g f d d * >                                                                                 > * d d d g d g d g g g d g d d d g g f f g g f d d g g ",
"        > * d d g d g g g g g g d g g g g g d d g g g g g d f g g g g g f g f f d g d g g g g f f g f f g g g g d g d f f g f g g f d g g g g g d d g g g g g d g g g d g g d g d d * >                 > * d d g d g g d g g g g g g d g g d g d d * >                 > * d d g d g g g g g g g g g g g d d g d g g g g g d g g g g g g d d g d g g g g g d g g d g g g g g d g e q a a p p p p q p a a a g s g s e a s.~.~.~.V.t r t t t q a q e * >         g f d g d g d g g g f f g g f g g f g g f f g g g d g d g d f g d g g g g g g g g g w.Y.~.~.H.N p q t t q q p p p q a q g s f g                                                                 g g g g g g g g g g g g g d d g d d d g g g d g d d * 6                                                                                 > * d d f d g g g d d d g g g g d d g f g g g g d d g g ",
"        > > * g g g g d d g g g g g d g g g g g g g g g g g f g g g g g g f g g d g d g f f g f g g g f g f f g d g d g g f g g g f g g g g g g g g g g g d g g g g g g g g g g g * > >                 > > * g g g g g g g g g g g g g g g g g g * > >                 > > * g g g g d d g g g g g g g g g g g g g g g d g d f g g g g g g g g g g g g d g d f f d g d g g g g g g g a a a a p s q a q a a g g g g g a s.~.~.~.V.t r 8 8 t p a a * > >         f d g g g g d g d g f g g g g g g g g g g f g d g d g g g g d f f d g g d d g g g n N.~.~.~.u.p p t t t t q p q a q a a g g d f                                                                 g f d g g g g g d d g g g g g d g g d d g g d g g = p q.                                                                                > > * g g d g g d d g g d d d g g g g g g g g g g g g g ",
"        O * d g g g g g g g g g d g f d g g d d g g g g g g g g g g g g g d g g g g g g g f g f g g g f g f g g g g g g g d g g g g g g g g g g d d g g d f g d g g g g d g g g g d * O                 O * d g g g g d g g g g g g g g d g g g g d * O                 O * d g g g g g g g g g g g g g g d d g d g d g g g g g g g g g g d d g d g d g g g g g g g g g g d g d g s e a a a a a a a a a a e g d g s s a s.~.~.~.V.t r t t t p a a e * O         f g g g g d d g g g g g g g g g g g g g g g g g g d d g g g g f g f f g f g g g g f.~.~.~.M.z 8 t t t t p p p a a q e g g g g f                                                                 g f g g g g g g g g g g g d g g d g g g g g g g N A.n % o                                                                             O O * d g g g g g g g g d g g g g g g d d g g g g g d f g ",
"      O > g g g g g g d d g g d f g g f f g f g g g g g g g g d g g g g g g g g g g g g g g g g g g g g g g g g g g g g g g g g d g g g g g g g g f g f f g g f d g g g g g g g g g g > O             o > g g g g g g g g g g d d g g g g g g g g g g > O             O > g g g g g g d d g g d g g g g g g g g g d d g g g g f g g g g g g g g g s s g g g g f f g g g g d d g g g g g a a a a s a a a g s s g g g g a s.~.~.~.c.t r 8 8 t p a a a g > O       g g g g g d g d g d d g g g g g g g g g g d d g d g d g g g g g d g g g g g g g N Y.~.~.~.r.q t t t t t p q q a q g s g g g g g                                                                 g g g g g g g g d d g g d f g d g g g g d g g r.I.n.c > o >                                                                         > O > g g g g g g d g g g g d g d g g g g g g g g g g g f g ",
"    > O g g g d d g g g f g f f g g d g g g f g g g g g g g g g g g g g g g g g g g g g g g g g g g a a g g g g g g g g g g g g g g g g g g g g g f g g g s g g f f g g d d g d d g g g O >         z o a a a e e g s s g g f f f f g g d d g d d g g g O >         > o g g g d d g g g f g f f g g g g g f g s g s g g g g s f g g g g g d g q a q g g g g s f f d g g g g d g d g f g g g a a d q a g g g d g d g f a s.~.~.~.S.q r 9 t t p q q a g g O >     f s g s g g g g g g g g g g g g g g g g g g g g g g g g d g d f f d g g d d g g n.~.~.~.M.p t t t t t p p p a a a g g g d g d f                                                                 d g g g g g g g g f g f f g g f d g g g g g u.G.r.c a a o :                                                                         > O g g g d g g g g g g g d f g f d g g d d g g g g g g g g ",
"    > * g g g d d g g g f g g g d g d d d g g f d g g g g d g d g d g d d g g g g g N n.I.E.~.E.E.H.A.B c d a a g g g g g g d d d g d g g g g d f g g s e e g e g g g g f g g d d g g g * >         z * a a a q q a g d g g g g g g g g f g g d d g g g * >         > * g g g s s g g g f g g g g f g g f k f.M.w.e a e g e d c r.A.Y.~.E.E.~.N.u.d a q a q d g g f d g d g d g g g f f g g d a a d q g s g d g g g f d s.~.E.~.V.t r q t t p q q a g g * >     g q a a a a g e g s s g g g g g g g g g g d d n g g g g g g d g g f f g f g g w.Y.~.~.~.w.t t 8 t t t p p q q a e g g g g g d g                                                                 g g g g g g g g g f g g g d g g f d g g g r.L.i.c a a a & :                                                                         > * g g g d d g d d g g d f g g g f f g f g g g g g g g g d ",
"    > * g g g g g g d f g g d d d g g d d g f g g g g d g d g g g g g d g g g g N M.Y.n.r.r.V.E.E.E.E.E.I.n q a a a g g g g g d g g d g d n r.N.~.E.~.G.G.n.N q q q g g f g g g g g g g * >         z & a a a a a a a d a g e s s s g g f g g g g g g n e x         q.g N a a a g g s f g g d d g g g M n.~.~.~.M.d a q a q B Y.~.~.~.~.~.~.~.~.~.S.w.q a q d a g f d g d g d g g g g g N n.~.y.a d q g e g d g g g g a s.~.~.~.c.8 r t q 8 p a V.~.~.~.B q.    B B ~.G.~.G.E.E.r.d g g f f f f f f f f g n j.~.A.d e g e g * * s g g g f g g n.~.~.~.M.z t t t q q q e p a d g f f d g d g * *                                                                 d g d g g g g d f g g d d d g d g f f g m ~.I.m q a a a & :                                                                         > * g g g g d g g f g f f g d g d g g g f g g g g g g g g g ",
"    > > * g g g g d g g f g d d g f g f f g g g g g g d d g g g g g g g d d g y.~.n.d a q q q M n.~.~.~.G.n q a q a a g g d d g g g g g r.~.V.f.r.f.Y.E.E.~.H.r.q q a a a d s g g g c 7 t z         z 8 w w.r.s.f.c.S.~.V.M q e q s g g g f d g g M n.N x p         q.q.N r.a a a q a g f g d s g m n.~.E.E.E.~.~.r.q a M M.~.~.~.E.~.~.E.E.E.~.~.~.S.N p a a a a g g g g d g g g d N Z.~.~.E.s.a a a a a e g g g f f d s.~.E.~.c.8 r q t t q p N u.n.N q.q.    z z B ~.Y.x.f.N g q a g g g g g g g g M n.~.G.G.i.a q a a * o o d d d g g f n I.~.~.~.y.t 8 t 8 t t p p a a e s d g d g g * O O                                                                 g g d g d g g g g f g d d g g d d g g n A.~.B a d d a & : :                                                                         > > * g g g g d g d g g g d d g d d d g g f d g g g g d g d ",
"    > > * g d g g g g g g g f f g g g g g g g g g g g g g g g g g g g g g g r.~.Y.m d a a a a s a r.Y.E.Y.w.p a d d a g g g g g g n f.~.~.y.a a a a n N.~.~.~.I.n s a a d a g g g d n.B q.q.        q.q.B ~.G.~.~.~.~.E.Y.w.d d d d a g f g g n f.G.~.s : :         q.q.B I.c p a a a a g g f m M.E.~.~.~.~.E.~.G.s.q N n.E.I.r.M s p v r.V.E.~.G.~.G.M.y e p q q a d s g d g d r.S.~.~.~.~.E.f.q a d q a q g s g f g a s.~.E.~.S.q r t t t p p a q a 3 x q.        8 4 p q p q q q a a g g g g g M n.~.~.~.G.G.i.a q a & o     g d d g f g y.~.~.G.I.n t 8 t t t t p a a a e s d g d g * O                                                                     g g g d d g g g g g g f f g f g d d d f.~.V.g q a a a & : :                                                                         > > * g g g d f g f d d d d g g g d d g f g g g g d g d g g ",
"      O > * d d g g g g g g g g g g g g f f g g g g g d g g g g g g g g g g I.G.I.c a a a a p p p s u.~.Y.w.p p a a a q a s g g N I.~.~.r.a a a a a s m Y.~.~.~.f.p p a a a a g s s 4 r 8             , t g r.r.N.I.~.~.I.N a a a a g g g g N I.G.G.d : X             z q.B r.q p p a a a g f.~.M.B n M M.~.~.~.G.n.w.I.I.M q p p e p p p p s.~.G.~.~.~.r.q q p a d q g g c y.S.~.~.~.~.~.~.E.f.p s q a a a g s g g g a s.~.E.~.V.t r t t t p p q q * : t             X % p p p a a q q d e e n i.G.G.E.G.G.~.~.n.p p & X       g f f g g c G.~.~.G.M.8 8 t t t 8 q q d q e g g g g g * O                                                                       g g g g g g g g g g g g g g g g g d m ~.~.k.a q q q p & :                                                                             > * g g d f g g g f d d g g f g f f g g g g g g d d g g g ",
"      > O g g g g g g g g g f f g f g f f g g g g g g d d g g g g f g g g u.~.~.V.a a p p q p s p p e n.G.w.p p p a a a a g g r.Y.~.~.S.g a a p p p p s A.~.E.~.S.f p p p a a a g g g o >             - . t t t t t p M M p s d d d a g g r.Y.~.~.I.M X :             q.z ~.V.z p p p a a a d d g d a a m H.E.~.G.f.I.M.v t q i p q p p q q f n.G.G.~.~.n.t q p p d a a N I.S.N v m S.E.~.~.E.y.p q p p a a q e g f d d s.~.E.~.S.q r t t t p p a a a , q.            ; X p p p p a a q a N M.~.M.r.v f.G.~.~.~.n.p p X :       g g g g g w.~.~.~.~.y.t t t t t t p p a q g g g g g g O >                                                                       g g g g d g g g g g f f g g g g g f A.~.I.N a p q q p X :                                                                             > O g f f g d g d g f f g g g g g g g g g g g g g g g g g ",
"      > > O d g g g g g g g g g g g g g g g g g g g g g g g g g f f g g g n.~.~.I.M p p p q p p p p p r.S.M p p p a a a a g r.~.~.~.~.n.p p p p p p p p s.~.~.~.I.M t p p p a a g e o > :             - - . 8 t t t p p p p p a a a a a r.~.~.~.~.r.X : :             q.q.z S.M t p p p a a a g g a a a q V.~.~.~.~.h.+ -       t i p p q t t w.Y.~.~.z x             : o M c g a a y.G.~.~.~.u.      ; X a a g g g g q s.~.~.~.V.t r t t t p p a q , q.q.            ; X p p p p a a q r.I.f.n a a a M S.~.~.~.n.t t X ;             > o i.~.~.~.~.w.8 r t t t t p a a q g g g g g g O >             > O r.I.f.n g a q M I.~.~.~.n.t t 8 p p a a g g O >       g g g g g g g g g d g g g g g g g r.~.~.n.a p p s s p & X                                                                             O * g g g d d g d d g g g g g g g g g d g g g g g g g g g ",
"      O > O g g f g g g g g g g g g g g f f g g g g g d g g g g g g g g s n.G.~.~.r.p p p p p p e p p N n.M p p p a q a q n N.~.~.~.~.u.q p p p p p e q r.~.~.~.Y.w.t t p p a d a g o > o             . - . r t q t t p p p p a a a a n N.~.~.E.~.u.X ; X             z q.z Y.w.q t p p a a a a q q q d q i.~.~.~.M.p @ .       8 q q q q q t a N.~.~.B p             X * g g g a a n S.E.G.G.N       X % a a a g g e q j.G.G.G.V.t r t t t p s a u.z x $             X % p p p a a q q d e e q q q q s c.G.~.~.n.t t # X             o * n.~.~.~.I.g 8 9 8 8 8 q q q d q q g g g g g * o             O * g g g g a q q s c.G.G.G.i.8 q 8 8 p a a a g * O       g g d d d d d d f d d g g g g g g n.~.~.y.p p p p p p & $                                                                             O * g d d d g g g d g g g g g g g g d d f d d d d d d g g ",
"      > * g g g g g g g g g f f g g g g g g g g g g g g g g g g g g g g g n.~.~.E.A.z t t t q p p p q p p p p s s a a a a w.Y.~.~.~.Y.w.p p p p p p p p w.Y.~.~.L.N t 8 8 q p a a a g * :             - @ r r r t t 8 q q p s s d d a n G.G.~.~.Y.w.p % ;             q.B ~.~.w.t t t p p a d d a a a a p n.G.G.G.n.8 r @ .     t p p p p p q 8 i.~.G.~.M :         X & a q g q q q M I.~.~.~.u.    X # p q a q e s g a s.~.~.~.S.9 r t t t p c f.~.s.3 :           X % p q p q q q a a a g g a a a a p M.~.G.G.i.t 8 t # X         o * n c.~.G.G.c.t r r r t t p p a a a a e e e g e g * o         O * g d g s e q a a a M.~.~.~.n.t t t t q q q a q g * O     g g g g g g g g g g g d d d g d g S.G.L.w.p p p p p p p d z         : : : : :                                     p - - ; ;         o * g g d d g g f g f d d d d g d d d g g g g g g g g g g g ",
"      > * g g g g g g g f g d d g f g f f g g g g g g d d g g g g g g d e n.~.~.~.G.h.y 8 8 t p p p p q q q p q a a a a q n Y.~.~.~.I.g 8 t t t p p p e N Y.E.~.G.N t t 8 q p a a a g * :             - @ r r t t t q q p p q q q q a N S.G.~.~.I.M t # ;             q.B ~.~.u.t t t p e a q q a a a a p n.G.G.G.n.8 r r @ . X t p p p p p q q r.~.G.~.V.7 . . X X % a a q g q q q M I.~.~.~.t.. . # t p q a q e s g a s.~.~.~.c.8 r 8 t t M M.~.u.p % ;       X X % p p q p q q q a g g g g g a a a p n.~.G.G.i.r 8 t t % X X o o * g N S.~.G.G.i.t r r r t t p M s.I.~.~.G.G.G.I.i.N a * o o o o * g g d g s e q a a p n.~.~.~.n.r r t t q q q a e g g * O O g g g g g g g g g g g d d d g d r.~.~.V.M p q q q p q N I.B z p < X ; ; % % X X         ; ; X ; ; X : :         z 8 # # ; ; X : o o * g g g f f g g g g g g g g d g d d d g g g g g g g g g g g ",
"    > > * g g g g g d f g g d d d g g d d g f g g g g d g d g g g g d g g y.~.~.~.~.~.c.c t q q q e s p q q p p a a a a a a r.~.~.I.N t 8 t t t p e p q n Y.~.G.G.N r t q t p a a a g * : :         z - @ r r t t t p s a a q q q q a a j.~.~.I.r.t t # ; ;         r q.B ~.~.u.r t 8 q p p q q d d d d a n.E.~.E.A.8 r 8 r # # q e s s a a s p j.E.G.~.n.M @ @ # % p q a q d d a d M I.E.E.E.r.@ @ t 8 p q d d g d g a j.E.E.E.c.8 r r q n I.I.w.p p % ; ;     % % p q p q d d a d g g f f d d d d d s n.~.E.~.A.9 8 t 8 t % & * * g e r.G.E.E.~.r.r r 9 9 q n A.E.E.E.~.~.E.~.E.E.G.~.c.M & & * * a q g s f f g d a a s A.E.E.E.A.9 9 t t q p d d e g d g * * d g g g f f f f f g g f g f f g i.~.~.V.z p q p q q q s.G.~.B n X ; % % p p p : X : ; ; % X % ; ; % X & : : z z q.s.t t # % ; X & * g d g g g g g g g g g g g g g f f g f g g f f f f f g g g d ",
"    > > * g g g g g g g f g g g d g d d d g g f d g g g g d g d d g d s g N I.~.~.~.~.~.L.y.d q q q e p s a p a a a a a a q q a q p q t t t t q q p p q n G.~.G.~.u.r r t t p p a a g * > :         z - @ r r t t p p a a a a a a a a a a a p p p t t # ; ;         r q.B ~.~.u.r r t t q p a a a g a a a i.G.~.G.n.r r r r 8 t p p a a a q q p r.~.~.~.V.M 1 r t 8 p a a a a q a q c I.~.~.~.u.r 8 t t t p a q g e e a s.~.~.~.V.r r 8 u.~.~.~.u.p p % ; ;     p q p a a a a q a q s g g g g g g a a a n.G.G.~.i.r r r t t q a a q g g r.~.~.G.~.r.8 r r r u.~.~.n.r.v a g N V.G.~.~.~.~.V.n p a q a a g g g s g e q a a n.~.~.~.n.r r r 8 8 p q a g g g g d g g g g g g g g g g g d d g g d f A.E.E.S.p p 8 t q p z V.~.~.G.n.p % t t p p p p & : & % q p p X X p a q & & z B ~.r.t t t p % p a q g g g g g d g f g g f f f f f d g g d d g g g g g g g g g g ",
"    O O * g g g g g g g f g f f g g d g g g f g g g g g g g g g g g g g g a y.~.~.~.~.~.~.~.I.e.t t p p p a a a a a a a a a a a a p p p t t p p p s a a w.G.~.~.E.r.r r t t p p a a g * o X         t . @ r t t t p p a a a d d d d g a a a a p p p t % X X         , z B ~.~.u.r r t t q p d d a g g a a n.~.~.~.n.r r 8 r 8 q p a a a a a a a f.~.~.~.S.M 8 9 q 8 p q a a g g a a N I.~.~.~.t.8 8 r 8 t p a a g g g a s.~.~.~.S.9 a l.~.~.~.~.I.M t % X X     e q a q a a g g g g g g g g g g g a a a n.~.~.~.n.r r r 8 t q s d q g q y.~.~.~.~.s.r r r s.~.M.M p p a a a a p y.~.~.~.G.~.i.f s q a q a a g g g g a a a n.~.~.~.n.r r r t t p a a g g d g d f g f g g g g g g g g g g g g g e M.~.~.M.p 8 t t t p M I.G.~.G.A.q 8 8 t t p p p q & q q a s s s s s d a q q g G.Y.w.t t t q q a d q g d g g g g g d d g g g g g d g g g g g g g g g g g g g f g ",
"    > O g g g g g g g d d g g d f g g f f g f g g g g g g g g d g g g g g a c n.~.~.~.~.~.~.~.~.V.w.t p p p p a a a a g g a a a q p p p p p p p p s a d N Y.~.E.G.u.r r q t p p a a g g o :         z . r r t t p p a d a g g s s g g g d a a p p p p p X :         8 z ~.~.~.u.r r t 8 q p a q g g g a a i.G.~.G.n.8 r r t t p p a a a g e q a r.~.G.~.I.M r r t t p p a q g e g q n I.~.~.~.t.r r t t t q a q g e e a s.~.~.~.c.M M.S.c.~.~.~.~.N.v t X ;     p a a a a q g s g d d g g g g g g g a a n.G.G.~.i.r 8 r t t p a a a g a s.G.~.G.~.r.8 r u.Y.y.t p p p p a q q p q y.G.~.~.~.~.r.p p p a a q g e g e e a a n.~.~.~.n.r r r 8 8 p q a e g g g g g g f d g g g g g g g d d g g g g N.~.~.n.p t 8 t 8 p n Y.~.~.~.n.t 8 t t t q q a a a q q d q d d d d q d q q M.~.N.y 8 t t p q a a a g g g d g d g g g g g g g g g g g g d d g g g g g g g d f g ",
"    > * g g d g d g g g g g g g d g f d g g d d g g g g g g g g g g g g e a a p y.~.~.~.E.~.E.~.~.~.A.M q p p a a a a g e g a a a a p p p p p a q q a a n H.~.G.Y.t.r r q q p q a q g g * :         z @ r r 8 t q p s d g g g g g g g g d d a q p q p p % :         8 N ~.~.G.u.8 r t t p p a a g g g a a n.~.~.~.i.8 r r t t q p a a g g g a a f.G.G.~.I.M r 9 q t i p a q e g g a M I.~.~.~.u.9 r t t t q q a g g a a y.~.~.~.I.V.M.x b V.~.G.~.G.s.t # ;     s a a a g s d g g g g g g g g g g g a a n.~.~.~.n.8 8 t t t p s d g g g f.G.G.~.~.s.r r e.w.t t p p p p p p p p p y c.~.~.~.~.A.q t p p a q q g g g a a a n.~.~.~.n.r r t t t p a q e g g g g f g g g g g g g g g g g g g g g e V.~.~.V.t 8 t t t q n Y.~.~.~.A.t t t t t q q a a a a d q q q d d q q q d M I.~.s.q 8 t t p p a d a g g g d d g g d d g g g g g d g g g g g g g g g g g g g g g ",
"    > > * f d g d g g d d g g g g g d g g g g g g g g g g g f g g g g g f a a q p g n.E.E.~.E.~.~.~.E.I.m q p q a q a a d g g a a d a a a a a a a a a a w.G.~.~.~.t.r r t t t q a q d * > :         z - @ 9 8 t q p a a g g g g g g g g g a a q a q s & : :         8 q.B E.G.u.8 r t 8 8 p a a g g g a a A.~.G.~.i.r r r t 8 q p a a g g f g q f.G.~.~.I.M 8 9 q 8 p p a a q g e a m I.~.~.~.u.9 8 t t t p q a e g d a s.~.~.~.~.s.p 8 1 w.Y.G.~.G.E.y - -     s q a a g g d g d g f g g g g g g g g a n.E.~.G.n.8 r t t t q s d q g g s.~.G.~.G.s.8 r r r t t p p p p p s p q p q u.~.~.~.G.H.n 8 t p p a q g s g d a a n.~.~.~.n.r r t q t q a q g g g g d f g g d d g g g g g g f g d d g g V.~.~.V.q q t t t q w.G.~.G.E.N.8 r t q t p q a a a g g e g q a a e g q a w.~.I.N q p p q p p a a d s g d g d g g g f g g g g g g g d d g f g g g g g g d d g g ",
"      > > * g g g g g g g g g g d g g g g g d d g g g g g d f g g g g f g d d q p q t M M.~.E.E.~.E.E.~.I.M p q p q d d g d g g a d q a a a a a q q a a w.Y.~.G.~.t.r r t 8 t p a a * > :             - - # t t p a q g g g g g g g g g g e a a a a & : :             q.q.r.~.t.r r t t t p a a g f g a d A.~.~.~.i.r 8 t 8 q p a d g g f f g a s.G.~.G.I.c 9 r t q q p q a q g g a m H.~.~.E.u.r 9 8 t 8 p q a g g d d s.~.E.~.V.r r r r r u.~.~.~.B 0.1       p s q a s g d g g g f f g g f g g f g a A.E.~.~.n.8 r 8 t 8 e a a d q a B ~.G.~.~.n.8 8 r r q t p e p a s s a p p q M S.~.G.E.~.w.q 8 t q a q a g g f d a n.E.~.~.A.r r q q t p a q g s g d f g g g d d f g f g g f f g g d s q V.~.~.I.M t t t t 8 M S.~.G.E.I.c r 9 t q q q a q g g g g s f g g f e g a s.~.r.p q q q p q p a a d s g d g d g g g g g g g g g d d d g g f f g g f g f d d g g ",
"      O O g f g g g g f g d d g g d d g g g g g g g g g g g g g f g g g g g a a p p t 8 t w.V.~.~.~.~.~.~.i.a p p p a a a g g g g a a a a a a a a a N f.Y.G.G.~.~.N 8 r 8 8 t p a d g o o             . . t q t p a q e g d d g g d d g d s g a a d a o o             z z ~.E.t.r r r q t q q a g g g a a n.~.~.~.i.r 8 t 8 q p a a g g g g g a s.G.~.G.I.c 9 r t q q p q a e g g g M I.~.~.~.u.r 9 8 t 8 p q a g g g a s.~.~.~.V.8 8 r 8 r p n.~.E.~.z p       p s q a e g d g g g g g g g g g g g g a n.~.~.~.n.8 r 8 t 8 e a a d q a B ~.G.~.~.M.r r r r t t p p p a a a a a p q p c.~.G.E.~.e.9 8 t q p q a g g g a a n.~.~.~.n.r r t t t p a q g s g d f g g g d g g g g g g g g g g g g a M.E.~.Y.m q q t t t q M.~.~.~.~.e.r r t t p p a a g s g d g g g g g g e M S.V.n p p p p p p a a a g g g g d g g g f f f g g f g g g g g g g g g g g g g g d g g ",
"        > * g f d g f f g g d d d g g g d d g f g g g g d d g g f g f d d g d a a p p 8 8 t a u.Y.~.~.~.G.G.q.t p p s a q e d g g g q q a a a n j.I.G.r.r.Y.~.G.G.N r r 8 t t q d a * >                 - # t q q a a e g g d d d d g g d g g e d a * >                 q.B ~.r.8 r 9 q t p q q g f g g d A.E.~.~.n.8 r t t t p a d g g f f f a s.~.G.~.I.M r r t t p p a q g g g d m H.~.~.E.u.r r t t t q a a g d d d s.~.E.~.c.8 r r 8 8 r a S.~.B q.        p p a a a s g g g f f f g g f g g f g a A.E.E.~.n.r 8 t t t p a a a a a w.G.~.~.~.H.n 8 r r 9 t p s a a d d d a a p q n.~.~.~.~.q.r t t t q a a g f f d a n.E.~.~.A.r r q q q p p a e g g g g g g f g f f g f g g f f f g g g a n.~.~.~.e.t q t 8 t q f.G.E.~.G.i.9 8 8 t q p a a g s d g g d g g d g g r.S.r.a p p e p q q d a q g f d g d g d g f g g g g g g g g g g f f f g g f g f f g f g ",
"        > * d g f d g g g g g g g g d d d g g f f g g f d d g g g g f d d g d q a a p p 8 t t r w.I.~.~.G.~.s.t t q s a q q d g g g e e h u.N.E.S.r.c q n G.~.~.~.u.r r 8 t 8 e a q * >                 - # 8 t e q a e g g g g g g g g d g s f g e 5 i                 q.B G.u.8 8 r t t p a a g f g g a n.E.~.G.n.8 r 8 q t q p d g g g g d a r.~.G.~.S.n r 8 8 t q q a q g s g d M I.~.~.E.u.8 r q 8 t q a q g d g a s.~.E.~.V.r r r r r 8 9 w.G.B q.        8 p s q a e g d g f g g g g f g g f g a n.~.E.~.i.r 8 t 8 q p q q a d q M S.~.G.~.L.q.r r r q t p s a a a a d a q a q n.G.E.~.G.n r 9 8 t q a q g f g g a n.E.~.~.A.r r t t q p q a e g d f g d g g g f f g f g g g g f g g g a s.E.~.~.l.q q t t t 8 M V.~.~.~.Y.w.r r t t p a a g s g d g g g g g g N Y.B a a p p p p p a a a g g g g g d g g g f f f g g f g g g g g f g g g g f g f f g g g ",
"        O * * g g g f f f g g g g g g g g g g g g g g g g d g g g g g g d d g d q a q p q t t 8 8 q.~.~.G.~.i.r 8 q p q q a g g g g m M.~.Y.f.n a a a a w.Y.~.~.~.u.r r r t t p a * * o                 . # # t p a a a g g g g g g g g g g g g r.n N a                 z B N u.r r 9 q q p a a g f g g a n.~.~.G.n.r r t 8 q p p d g g g g g a r.~.~.~.I.c 9 r t q q p a a g s g g M I.~.~.E.u.r 9 8 t t p a q g g g a s.~.E.~.V.r r 8 8 9 r t t y N z         t q q p a a g s g g g g g g f g g f g a n.~.~.~.i.r r t t 8 e a a d q a a M.~.G.~.~.s.r r r q t p s a a a g g a q a p n.~.G.E.V.v 8 8 t t p p q a g g g a n.E.~.~.A.r r t t t p q a g g g d f g f g g f f g f g g g g g g g g a r.L.~.~.V.a q t 8 t 8 t N E.~.G.G.S.a 8 t q p p a a e s g g d g g s w.I.B q a a p p s p q q d a s g f d g d g d g f g g g g f g g g g g g g g g g f g f f g g f ",
"        > O g g f d g g f g g g g g g g g g f f f g g f f g f g g g f g N I.N g a a q a p p i q t q n.~.~.~.i.r t t p p a a d c r.H.~.L.k.c a d d d a p w.Y.~.~.~.u.r r 8 t 8 q a a o >                 - . t t e q a q g g g g g g g g d c N H.~.~.0 ,                 q.z ~.u.8 8 r t q p a a g f g g d A.E.~.G.i.r r t t q p p d g g f f f a r.G.~.~.I.M 8 r t q p p a a e s g d m H.~.~.E.u.r 9 t t t p q q g d d d s.~.E.~.V.r r 8 r r 8 q t t t q.        z q p p a a q e g f f f g g f g g f g a A.E.E.~.i.8 r t t t e a a d g a a u.G.G.~.E.S.g r r q t p s a a d d f g e q a M.~.~.E.n.r 8 r t t p q q a f f d a n.E.~.~.A.r r q q q p q q g g g g f g g f g f f g f g g f f f g g g a M H.~.~.~.q.t t 8 t t t t r.E.~.G.E.i.a t q q p a a a e g g s s s B I.r.q a a a a q s a q q d g g f d g g g g d g g g g g g f g g g g g f f f g g f g f f g f g ",
"        > * g f d g g g g g g g g g g g g g g g g g g f f g g f g g g d n Y.k.e a q a q a p p q 8 t e.~.G.~.r.r 8 q t q q a M M.E.~.~.k.d a a a a a p p w.Y.~.~.~.t.r r 8 t t q s a * >                 - @ t q q a a e g g g g g g g g j N.~.G.E.u.& :                 q.B ~.r.8 r r t t p a a g g g g a n.~.~.~.n.r 9 q t t e p a g g g g g a s.~.~.E.H.M r 9 q t p s d a g g g g M V.~.~.~.u.9 r t q q p a a g g g a s.~.~.~.V.r r r r t t 8 q t 5 x         s.t t p p a a a g g g g g g g g g g g a n.~.~.~.n.r r t t t p a a d g a a N S.G.~.E.E.r.r r q t p p a a g g f f d a M S.E.~.H.w.8 r r q t p a a a g g e a n.~.~.~.A.r r q q q p q q g g g g f g g g d g g g g g g g g g g g g a a A.~.~.E.A.q t 8 8 t t t z j.~.G.~.~.n.M t q q p q a q g g g N c.M.M a q a q a q s a q q a g g g f g g g g d d g f f f g g f g g g g g g g g g g g g g g d g g ",
"      > * g f g g g g g f g g g g f g g g g f g g g g f f g g g g f d d w.L.S.M a a a q a a q q q 8 w.~.G.~.e.r r 8 q p q g Z.~.~.~.I.n s p p p p s p p w.Y.E.~.~.u.r r 8 8 t p p d a * >             - @ r q t p p q q g g g g g g g n c.G.~.~.I.n p % :             q.B ~.E.u.r r r t q p a a a d g g a n.E.~.~.M.r 9 8 t t p p s g g g g d a s.~.~.E.H.M r r t t p s d a g g g d M V.~.~.E.u.r r t q q p a a a d g a s.~.E.~.V.r r 9 r t t t t q t 7 q.      ~.r.q t p p a a a s g d d g g g g f d a M.~.~.~.n.8 r 8 8 t p p a d e a a a s.G.~.~.~.V.z r q t p p a a g g g g g a r.~.~.G.v.r 9 r t t t q q a d e g e a i.~.~.~.A.r r r t t p q a a g g d f g g g d d f g f g g f f g g d s e a r.~.~.~.Y.w.8 t t t t p 8 8 w.V.E.~.~.~.Y.n.r.w.g M w.r.n.H.N.N a a a a q a a a a a a a d g g g d d g g g g g d g g g g g g g d d d g g f f g g f g f d d g g ",
"      > > * g g g g f f f g g g g g g g g g f f f g g f f g f g g f d d w.L.~.f.a a q q a a q p p q M I.G.S.M r t t q p q N L.~.~.E.I.f q p p q q e p v s.~.~.~.~.h.2 r r 8 t p p a * > :             1 - @ t t p p q a g g g g g g g r.~.G.~.~.I.z % ; ;             q.q.B ~.h.2 r 9 q q p p a a g g a a M.E.E.E.V.r 9 9 t q p p a a g g g d d j.~.~.E.H.M 8 r t q p s d a g d d d M V.~.~.~.s.r 9 r q q p a d d d a a f.~.~.~.I.M r 9 q q t p p p % ; i       ~.G.M t q p p a a q g s g d g g g s e a S.~.~.~.M.8 r 8 t 8 p p q a d q a q M S.~.E.~.~.s.r 9 t t p q q q g g f d a n.E.G.c.v t r r t q q q a d q g g a a c.~.~.~.A.r r r t q p q a q g d f g d g g d d g g g g g g f g d d g g a g c.G.~.~.A.y t t q q q p t t t w.M.G.G.~.E.G.~.G.~.G.I.f.M a a a a q a q a q d a q q g g g g g g g d f f g g d f g g d d d g g g d d g f g g g g g g d d g g ",
"      > * f f d g g g g g g g g g g g g g g g g g g g g g d g g g g g g w.~.~.~.u.a q a q a a a p p w.G.~.r.t r t t t p p s.~.~.~.~.G.w.t t t t t a y.Y.I.Y.~.~.~.I.M r r t N u.g d d * >             l @ 9 q 8 p p a a a n n g g g g s.~.~.~.~.G.N q # ;             q.B E.E.S.M r r t N u.v a a a a a n I.~.~.~.I.M r r 8 t p p a a g g g g a n.~.~.~.~.n r r r t 8 p a a g g g a r.Y.~.~.~.n.r r 8 t t i a a a a a a M.~.~.~.Y.M r r t t t p q e q % ;       G.G.G.u.t q q p a a a g g d g d s s q N I.E.G.~.I.M r r t 8 p q a a a a a q a w.~.E.E.E.Y.q.9 t 8 p p a q e g d g r.Y.~.S.n t t q q t q q q a d g g g a n S.~.~.~.S.M r 9 q q p p a q g g g g g g g g g g g g g g g g g g g g e q a r.G.G.~.E.u.t t t t 8 p q t t q 8 8 z N n w.w.w.M q a a a a a a a q a a a a q d a e e f g g g f g d g g g g g f g d d g g d d g g g g g g g g g g g g g g g ",
"    > * g g d g d g f f g g d d d g d d d g g f f g g f d d g g g g f g m L.G.~.G.r.p p p q s a p s r.~.M.v t 8 t 8 q q p k.~.~.~.~.G.i.n t t g r.I.Y.r.g c.~.G.G.G.~.V.S.H.Y.r.c q a a * :         q.N u.r 8 t 8 p s d r.I.r.e e e g i.E.E.~.G.~.i.M t # <         < n ~.~.G.~.G.V.S.H.Y.s.u q q a q q B ~.~.E.E.~.u.9 8 8 t p q a q e s g a m H.~.~.E.G.i.p r r t 8 q s a a d d c n.G.G.G.~.S.M r 8 8 q p p d d a a N G.G.~.G.G.y.p r q q t q p q p p % l     G.~.~.~.A.M t p p a a a g g g g s g v n.E.~.~.~.~.s.p r t t p p a d q a q a q p u.~.~.~.~.Y.e.t t q q a a a a g N I.~.I.N t t t t q t p p a a a g g g v i.~.~.~.~.~.s.p r t t p p q a e g d f g g f d g g g g g g g d d g g g g a q c n.~.~.~.Y.w.t t t t p q p t q 8 8 t q t t p p q q a a a a a a a q q a a a a d g e s f g f g f g g g g g g g g g g g g d g g g g g d d g g g g g g g d f g ",
"    > O * g g g g g g f g d d g g g g g d d g f g g g g d d g g g g g f M I.G.~.~.~.f.v q p q p p N Y.c.v t t t t 8 p p s w.Y.~.~.~.G.G.~.I.I.~.H.s.g 8 t n.~.~.~.G.G.~.H.s.z t p p a * o :         q.z B V.s.w.w.w.f.S.Y.N q a a q q w.H.~.~.~.~.~.~.n a q.        ; 8 B ~.~.~.~.~.Y.r.z 8 q p M f.f.I.G.G.~.E.~.~.~.V.r.r.N p p a a n B r.M.L.~.~.~.~.G.G.V.v.s.w.8 q a a r.f.A.Y.G.G.~.~.~.~.~.M.r.r.v p p M j.f.c.G.~.~.~.~.~.G.S.h.r.w.t p p M s.g i q.    ~.E.E.~.E.~.I.n.s.M a a a y.f.r.n.S.E.~.E.~.~.~.~.~.Y.N.h.s.s.N a d q a q a q p p r.L.E.~.~.E.h.g t p p a a d N Y.~.n.n p q q t t t t p s a r.j.r.n.A.~.~.~.~.E.~.E.~.Y.S.l.s.s.r.q a q a s f g g f g g g g g g g g g g g g g s g a a N V.G.G.~.I.M t t t q q p p p p t t t t p p p q p a a a a a a a a q a a a a g g g g g g f g d d g g g g g g d d g g g g g d g g g g g g g g g g g g g f g ",
"    > > O g g g g g g g g g g g d g d g g g g g g g g g g g g g g g g s g M n.Y.~.~.G.G.M.s.f.h.V.~.f.c q 8 t t t p p p q a s.~.~.~.~.~.~.~.~.h.M t t t t M ~.G.~.~.Y.y.z r t t p p a X : :         q.q.z ~.~.~.~.~.~.n.M a a a a a a a s.~.~.~.~.~.~.z q.l         ; r z ~.~.~.Y.y.z r t t p p N ~.G.~.~.~.~.~.~.~.~.~.~.~.u.p q a q N I.~.~.~.~.~.~.~.~.~.~.~.~.n.t p p a n.~.~.~.~.~.~.G.~.G.~.~.~.Y.N p p w.~.~.~.~.~.G.~.G.~.~.~.~.~.h.t p p w.~.z q.q.    E.G.~.~.G.G.~.~.~.r.a a M I.~.~.E.G.~.~.G.G.~.~.~.~.~.~.~.~.~.V.s q a a a a q a q p n M.~.~.~.~.~.V.r.s.f.M.Y.~.M.N a p p p q t t p p p p n I.~.G.~.G.~.E.E.~.E.~.~.~.~.~.E.~.G.V.q a a g g d f g g g g g g g g g g d d g g d f g q a p w.Y.~.~.~.V.w.t t t q q p p q p q q q p q p p p a d d a d d a a a a q a e d f g f g g g d d g g g g g g g g g g g g d g f d g g d d g g g g g g g g g g ",
"    > * g g g g g g g d g g g d f g f d g g d d g g g g g g f g g g g g g q q n f.V.~.E.G.G.G.S.j.g q q q p p p p q q p p a c y.I.E.~.~.V.u.z t 8 8 t t 8 q s.E.S.u.p r r r t t p p a a * :         b N ~.~.~.~.N.u.n p p a a q q a a a c y.I.~.~.~.V.u.3 -         ; # s.~.I.u.p r r 8 t t p q s a d q a p q 8 t t r r r t q p e a d q a a q q p p t t t r 9 r t q t p p a a a q q a p q q t 9 r 8 r t t p p a q q a a q q t q 8 r r r 8 t t p p a a p % ;     8 r r r r r t t p p p a a a d a q a a p p t t t r r r r t t q p s a a a a q q a p p p t M s.V.~.G.~.E.G.Y.M.r.g a a p p p p p p p p p a a q a a a a a a a e t q t r r r r t t t p q q a a g g f d g g g g g g g g g g f g f f g g d q a p N G.~.~.~.Y.e.t t q p p p p e p p q p q p s s a d a a a d a d d a q g e g g f g g g g g f g g g g g g g d d g g d f g g f f g f g g g g g g g g g g d ",
"    > * g g g g g g g g d g g f g g g f g g g g g g g g g g g g g d g g g q q a p p q q q q q e e s q e q q p p p q q a a a q p p t t t r r r t t t t t q t t t q r r r 9 t t t p p a a * :         ; # t r r t t t t q p a a d d a a a s p p t t t r r @ -         ; % t t t r r r r t 8 t p s a a a d a p p t t t t t t t t p p a a d a a a a a p t t t t r t t t t p p a a a a a a p q t t t r t t t t p p a a a a a s p t t q t t 8 t t p p p a a a & ;     t q 9 r 8 t t t t p p a a a a q a d d p e p t t t r r r t t t q p a a a a q a q a q q p t t t t q t t q e p s a a a p p p p p q p p a a a a a a a a a a p p p t t t r r r 8 8 t q p q a a g g g g f g g g g g g g g g g g g g d g g a a p q N Y.~.~.~.~.h.a 8 p p p p q p p p p p p a s a d a a a d a d M r.n g g g g d g g g g g d d g g g g g g d d g g g g g d g g g g g g g g g g g g g f g ",
"    > O g g g g g g g d f g f g g * d g f g d d g g g g g g g d g d d g g a a a q % q q p q q e e s s p q q % q p a a a a q q a q p t t t t t t 8 8 t q p q % t t q t t 8 8 t p p p a a o :         ; X t t t t t t 8 q p p s a a d a a q q p i t t t t . -         ; X p t t t t t t 8 q p q p a & q a s p q q t t t t t t t q p & q a d a q q a p p t t t t 8 8 t p p a a a a q q a s p 8 # t 8 t t t p p p a q q a d p q % t t q t q 8 t p p a a a a X :     q 8 t t 8 8 t t p p p a a a a a d q a p q q t t t t t t t t p p s q a q a a a a a a p p p t t t t t 8 p p p s p p p p p p p p p a a a a a g a a a a a a a p p t t t t t t t t p p p a a q g s f g g g g g g g g g g d d g g d f g s a a a p p w.I.~.~.~.~.Y.r.g p p p p p p p p p a a a a a a a a a M n.I.y.a g g g g g g g g g d d g g g g g g g g g g g g d g f d g g d d g g g g g g g g g g ",
"    O > * g g * * g g g f * g * O * * * g * f g g g g g g g O O g * g g g g a a & : % % q p p X X p p q % % : & a a a a a a & a X X t t t t t t t q % p % % % X % t # # 8 8 t % % a a * > o         X ; # t t # # t q q % & a & & a * * q q p % % t t # - X         X ; % p t # # t t t q % p & X & & & a & s p p t t t t t X X X & * * a * d a a p p p t t X X X X p p a a a a a d & a % % % X X X t p p p a a a d & a & % % X % t # q t p p & & a a & : X     q t t t t t t t p p p a a a d a q a a a p p p t t t t t t p q p a q a a g g g e a q q p p p p t 8 t q q q p p s q a a a a q a q a q a q e g g g g a a a a s p q t t t t t 8 q p q a a a a g s g d g g g g g g g g g g f g f f g g f e a a q q p v n.~.~.~.~.E.~.h.M p p p p p p a p a a a a a n y.V.~.N.N a a a g a g g g g g g g f g g g g g g g d d g g d f g g f f g f g g g g g g g g g g d ",
"      > > * g g g O * g * > * > > O > > O > * g g * * * * * > > O > * * g g a : X : : : % X % : : & X % : : : X : a a a * * > X : : % % % # # t p % ; X : : X : ; % ; % p % X p a a * > >             ; ; % t t p X % p % : & : : * > * a & X p p p % ; ;             : : % p p p X % p % : & : : o : : X : & p p % % % % % : : : X : > o > * a a & & % % % ; ; ; ; & & & * * a a * : X : : X ; ; ; % % % & & a a * : X : : X ; ; % ; % p % X a a a * : :       p p p p 8 q p p p p a a a q d a a a a a q q p p p p p p p q s p & & a q g e f d g d a a s s e e q p p q q p s a a a a q a q a a a a g e g g g g g a a a q q p e q q q q p p e p s d q a q g * * g g g g g g g g g g g f g g g d g g f d a d p p p t w.M.~.~.E.~.~.G.G.M.s.r.w.w.w.w.w.j.n.S.H.E.E.S.r.d a a a a a a g g d d g d g f g g g g g g g g f g f f g g d g g g f g g g g g g g g g g g ",
"        > > O * * > O * > > >           O > > * O O > > > > O > > O > > * * o o         : : X : : X : :         o o * * > > o > : X : : ; ; X X % : : X           : : : % X : & & o > >                 : ; X % % ; X & : : :     > > > * o : & & X ; ;                 : : X % % : X % : : :           o : : & X X : : : : X :         o > > * o X : : : : X : : X : : : > o o * > : X         : X : : : : X o * > > X           : : : & X : & * o > :         q p p p p p p p a a a a a a a a q a a a a a p p p p p p p p a a X o * g g s g s s e a a a a a p p s p s s a a a a a a q q a a a g g g g s s g g g g q a q q q p p p p p p p q q q a q a g * o O d g d g g g g g g d f g g d d d g d g g a d a p p p t t N n.~.~.~.G.~.~.~.~.~.~.~.~.G.G.~.E.H.A.m d a q q a a a a g g g g d g g g g g g g g g g g g f g g g d g d d d g g f d g g g g g g d g d ",
"          O > > > > > >                     > > > O > >             > > > > >                                     > > > > >             : : X : : :                     : : : : : > o                     X : : : : : :                 > > : : : : X                     X : : : : : :                     : : : X : :                     > > > o : :                 > > o > > >                     : : o > > >                     : : : : > > o           a a q q a d a a a a a a q e g g g g q q a d a a a a a a q q a a     o * g d g d d s g g a a a a a a a a a a a a a a a a a a g g g g g g g g g g g f d a a a a d a a a a a a q q q a q g * o     g g d g d g d g g g g f g d d g g d d s g a d q p p p t t 8 8 n h.V.G.G.~.~.~.~.G.Y.c.i.B M p a a a q q q a q a a a a s d g g g d d d g g g g g d f g g d d d g g d d g f g g g g d g d g d g g ",
"                                                                                                                                                                                                                                                                                                                                                                                                                                                                q q q a a d d a a d g d e s g g s s e g a d d a a d a d q q a a       o * g g g g g d s d e q q a a a a d d a a a a a e g g g g g g g g g d g d g g g g g a a a q q q d q q a a a g g * o       g g g d d g d g g g g g g f f g f g d d g d a a a p q q p 8 t t t t t t t p p q q p p p p s p p p s a a a a d d a g g g g g g g g g d g d d g g g g f g d d g f g f f g g g g g g d g d d g g g ",
"                                                                                                                                                                                                                                                                                                                                                                                                                                                                g g g g g g g g g g g g g d g g g g g g g g g g g g g g g e g g       > O g g g g g g d g g g g g d a d d a g g g g g s s g g g g f g g g g g g g g g g g s g d g g g g e g g g g g g O >       g g g g g g g g g g g g g g g g g g f f g g g a a a q q q p p t t t t 8 t 8 p p p p p p p p p s p p a a a a a a a e g s g g g g g g g d d d g g g g g g f f g g g g g g g g g g g g g g g g g g ",
"                                                                                                                                                                                                                                                                                                                                      > O g g g g g g d g g g g g g g g d g g g g g g O >             > O g g g g g g d g g g g g g g g d f f f f f g g f g f f       > o g g g g g g d g g g g g g g g d g g g g g g o >             > O g g g g g g d g g g g g g g g g g g g g g g g g g g g f f g g g g g g g g g g g d g g g g g g s g g g g g g O >                                                                                                                                                                                                       ",
"                                                                                                                                                                                                                                                                                                                                      O * g g g g g d d f d d d d d d f d d g g g g g * O             O * g g g g g d d f d d d d d d f d g g g g g g d d g d g       O * g g g g g d d f d d d d d d f d d g g g g g * O             O * g g g g g d d f d d d g g g g f f g g g g g d g g g g g g g g d g d g g g g g g g g g d d d f d d g g g g g * O                                                                                                                                                                                                       ",
"          O > > > > > >                     > > > O > >             > > > > >                                     > > > > >             > > O > > >                     > > > > > > O                     O > > > > > >                 > > > > > > O                                                                               O * g d g d d d g g g g g g g g g g g g d d d g d g * O         O * g d g d d d g g g g g g g g g g g g g g g g g g g g g g     O * g d g d d d g g g g g g g g g g g g d d d g d g * O         O * g d g d d d g g g g g g g g g g g g g g g g g g g g g g g g g g g g g g f f g g g g f g g g g g g g d d d g d g * O                                                                                                                                                                                                     ",
"        > > O * * > O * > > >           O > > * O O > > > > O > > O > > * * O O         > > O > > O > >         O O * * > > O > > O > > > > O O * > > O           > > > * O > * * O > >                 > > O * * > O * > > >     > > > * O > * * O > >                                                                         O O * g g d g d d d g g g g g g g g g g g g d d d g d g g * O O O O * g g d g d d d g g g g g g g g g g g g g g g g g d d g d g O O * g g d g d d d g g g g g g g g g g g g d d d g d g g * O O O O * g g d g d d d g g g g g g g f g f f g g g g g g d d g g g g g g d d g g g g d g d d d g g g g g g g g d d d g d g g * O O                                                                                                                                                                                                 ",
"      > > * g g g O * g * > * > > O > > O > * g g * * * * * > > O > * * g g g > O > > > * O * > > * O * > > > O > g g g * * > O > > * * * * * g g * > O > > O > > * > * g * O g g g * > >             > > * g g g O * g * > * > > * > * g * O g g g * > >                                                                       * * g d g d f f g f g g f f f f f f f f g g f g f f d g d g * * * * g d g d f f g f g g f f f f f f f f g g g g g g g g g g g d * * g d g d f f g f g g f f f f f f f f g g f g f f d g d g * * * * g d g d f f g f g g f f f f d g g d d g f g g g g d g d g g g g d g g g g g g g g d d g f f f f f f g g f g f f d g d g * *                                                                                                                                                                                                 ",
"    O > * g g g g g g g f * g * O * * * g * f g g g g g g g O O g * g g g g g g * > * * d g g O O g g d * * > * g g g g g g * g O O g g g g g g g f * g * * * O * g * f g g g g g g g * > O         O > * g g * * g d d * * g * * g * * d d g * * g g * > O                                                                     g d g g g g g d g d d g g g g g g g g g g d d g d g g g g g d g g d g g g g g d g d d g g g g g g g g g g g g g g g g f g d g d g d g g g g g d g d d g g g g g g g g g g d d g d g g g g g d g g d g g g g g d g d d g g g g g d g d d d g g f d g g g g d g d d g d d g g g g g g g g f g f f g g g g g d d g d g g g g g d g                                                                                                                                                                                                 ",
"    > O g g g g g g g d f g f g g * d g f g d d g g g g g g g d g d d g g g g g d * d d g f f f f f f g d d * d g g g g g d d g d g g g g g g g d d g f g d * g g f g f d g g g g g g g O >         > > * g g g g g g f g g d d d d g g f g g g g g g * > >                                                                     f d g d g g g g g g g g g g g g g g g g g g g g g g g g d g d f f d g d g g g g g g g g g g g g g g g g g g g f g g f f g g g d f d g d g g g g g g g g g g g g g g g g g g g g g g g g d g d f f d g d g g g g g g g g g g g g g g d g g g f g g g g g g g g g g g g g g g g g g g g g g g g g g g g g g g g g g g g g d g d f                                                                                                                                                                                                 ",
"    > * g * g g g g g g d g g f g g g f g g g g g g g g g g g g g d g g g d d g g g d d f d f f f f d f d d g g g d d g g g d g g g g g g g g g g g g g f g g g f g g d g g g g g g * g * >         > > * g g g g g g g g g g g g g g g g g g g g g g * > >                                                                     g g g g g d g d g d d g g g g g g g g g g d d g d g d g g g g g g g g g g d g d g d d g g g g g g g g g g g g g g g g g g g g d g g g g g d g d g d d g g g g g g g g g g d d g d g d g g g g g g g g g g d g d g d d g g g g g f g g f f g f g g g g g g g g d g g g g g g g g g g g g g g g g g g g g g d d g d g d g g g g g                                                                                                                                                                                                 ",
"    > * g * g g g g g d g g g d f g f d g g d d g g g g g g f g g g g g g d d g g g g f d d d f f d d d f g g g g d d g g g g g g f g g g g g g d d g g d f g f d g g g d g g g g g * g * >         O O * g g g g g g g g g f f f f g g g g g g g g g * O O                                                                     f g g g g d d g g g g g g g g g g g g g g g g g g d d g g g g f f g g g g d d g g g g g g g g g g g g g g g g f g g f f f g g g f g g g g d d g g g g g g g g g g g g g g g g g g d d g g g g f f g g g g d d g g g g g g g g g d g f d g g d d g g g g g g g g g g g g d g g g g g g g f g f g g g g g g g g g g d d g g g g f                                                                                                                                                                                                 ",
"    > > O g g g g g g g g g g g d g d g g g g g g g g g g g g g g g g d g g g g g g d d g g g g g g g g d d g g g g g g d g g g g g g g g g g g g g g g g d g d g g g g g g g g g g g O > >         > O g g g g g g g f g g g d d g g g f g g g g g g g O >                                                                     f d g g g g d g d g f g g g g g g g g g g f g d g d g g g g d f f d g g g g d g d g f g g g g g g g g g g g g f g g g g f g d g f d g g g g d g d g f g g g g g g g g g g f g d g d g g g g d f f d g g g g d g d g f g g g g g g g d g g g g g g g g g g g f g g g g g f g g d g d g f f g f g g g g g g f g d g d g g g g d f                                                                                                                                                                                                 ",
"    > O * d d g g g g f g d d g g g g g d d g f g g g g d d g g g g g f g g d g g g g g d g d g g d g d g g g g g d g g f g g g g g d d g g g g f g d d g g g g g d d g f g g g g d d * O >         > * g g d g d g f f g g g g g g g g f f g d g d g g * >                                                                     g f d g d g d g g g f f g g f g g f g g f f g g g d g d g d f g g f d g d g d g g g f f g g f g g f g g f g g f g g g g g g d g g f d g d g d g g g f f g g f g g f g g f f g g g d g d g d f g g f d g d g d g g g f f g g f g d g g g g g d d g g g g g d f g g g g f g f f d g d g g g g f f g f g g f f g g g d g d g d f g                                       / ^ ! ! ! / ^       (       _     E E                                                                 E ~       /                                         ",
"    > * g d d f g g f f g g d d d g d d d g g f f g g f d d g g g g f g f f d g d g g g g d f g g f d g g g g d g d f f g f g g g g d d f g g f f g g d d d g d d d g g f f g g f d d g * >         > > * f d g d g g g g g g g g g g g g g g d g d f * > >                                                                     g f d g d g d g g g g g g g g g g g g g g g g g g d g d g d f g g f d g d g d g g g g g g g g g g g g g g g g g g d g d g d f g g f d g d g d g g g g g g g g g g g g g g g g g g d g d g d f g g f d g d g d g g g g g g g g g g d d g g g g g g g g g g g g g f g g g g g g g g g g d g g g g g g g g g g g g g d g d g d f g                                         Y W W W   Y       R R   R X.R   Q             )                                                     R Q       )                                         ",
"      > * * g g g g g g g g g g g g g g g g g g g g g g g d g g g g g g g g g g g g d g d g g g g g g d g d g g g g g g g g g g g g d g g g g g g g g g g g g g g g g g g g g g g g * * >             > > * g g g g d g g g g g g g g g g d g g g g * > >                                                                       g g g g g d g g g f f f g g f g g f g g f f f g g g d g g g g g g g g g g d g g g f f f g g f g g f g g f f f g g g d g g g g g g g g g g d g g g f f f g g f g g f g g f f f g g g d g g g g g g g g g g d g g g f f f g g f g d g g g d d g f g g g g d d g g f g f d d g f g g g g d d g g g g f g g f f f g g g d g g g g g                                         o.o.O.o.{ `         |   ' [ '   [   | o.o.  ] o.o.    o.o.    o.o.   .[ o.|   o.]   ] o.o.    ..o.] ` ]   ..` |   ] `     ]                             ",
"      > > * g g g g d g g g g g g g g g d g g g g g g g g g g g g g g g g g g g g g g d g g g g g g g g g g d g g g g g g g g g g g g g g g g g g g g d g g g g g g g g g d g g g g * > >             O O g f g g g d d g d d g g d d g d d g g g f g O O                                                                       d g f d g d g d g f g g g g f g g f g g g g f g d g d g d f g d d g f d g d g d g f g g g g f g g f g g g g f g d g d g d f g d d g f d g d g d g f g g g g f g g f g g g g f g d g d g d f g d d g f d g d g d g f g g g g f g g g d d d g g f f g g f d d g g g g f d d g f d g g g g d g g g g f g g g g f g d g d g d f g d                                         #.$.$.$.V C         #.  }   }   @.      V V   @.    +.    @.  #.    @.V   #.    #.        C   #.    V } } C   @.    @.  C                               ",
"      > * g f g g g d d g g g g g g g d d g g g g f g d d f g g f g f d d g f g g g g d d g g g g g g g g d d g g g g f g d d f g g f d d g f g g g g d d g g g g g g g d d g g g f g * >             > > * g f d g g d g g d d d d g g d g g d f g * > >                                                                       g f d g g g g d g g g g g g f g g f g g g g g g d g g g g d f g g f d g g g g d g g g g g g f g g f g g g g g g d g g g g d f g g f d g g g g d g g g g g g f g g f g g g g g g d g g g g d f g g f d g g g g d g g g g g g f g g g g g g g g g g g g g g d g g g g g g d d g f d g d g d g g d g f g g g g g g d g g g g d f g                                       D D %.%.%.  H         I D G   I K G   I 9.9.G   I     9.9.9.U   I     I     I     P   G 9.9.I   U     D 9.9.    I     I   K                               ",
"        > * g f d g g d g g g g g g g d g g g g d f g d d f g g f g f d d g f d g g g g d g g g g g g g g d g g g g d f g d d f g g f d d g f d g g g g d g g g g g g g d g g d f g * >                 O * * g g g g g g g g g g g g g g g g g g * * O                                                                         g f g g g g d d g f f f g g f g g f g g f f f g d d g g g g f g g f g g g g d d g f f f g g f g g f g g f f f g d d g g g g f g g f g g g g d d g f f f g g f g g f g g f f f g d d g g g g f g g f g g g g d d g f f f g g f g g g g g g g f f f g g f f g f g g g f g g g g g g g d g g g g f g f g g f f f g d d g g g g f g                                       L   J 4.S Z           F 3.    F 3.    2.  Z F   2.    1.        2.    2.    2.    1.  1.    2.  4.    A F A 2.  2.    A >.A                               ",
"        > * g f d g g d g g g g g g g d g g g g d f g d d f g g f g f d d g f d g g g g d g g g g g g g g d g g g g d f g d d f g g f d d g f d g g g g d g g g g g g g d g g d f g * >                 > * g f d g g d g g g g g g g g d g g d f g * >                                                                         d g g f g g g g g g g d g g g g g f g g f f f g d d g g g g f g g g g d d g f d g d g d g g g d d g g g d g d g d f g d d g g g g g g d d g f d g d g d g g g d d g g g d g d g d f g d d g g g g f g g g g d d g f f f g g f g g g g g g g g g g g g f g g d g g d g g f g g g g g g g g g g g g f g g f f f g d d g g g g f g                                         &.&.  =.              7.      7.    6.7.7.-.  -.7.    7.7.*.  <.    ,.    <.    ,.  ,.7.7.<.  6.    *.-.  ,.:.,.      7.                                ",
"      > * g f g g g d d g g g g g g g d d g g g g f g d d f g g f g f d d g f g g g g d d g g g g g g g g d d g g g g f g d d f g g f d d g f g g g g d d g g g g g g g d d g g g f g * >             > * g f g g g d d g g g g g g g g d d g g g f g * >                                                                       f g g g g d d g f d g d g d g g g f g g g g g g d g g g g d f g g f d d g f d g g g g d g g d d d d g g d g g g g d f g d d f g g f d d g f d g g g g d g g d d d d g g d g g g g d f g d d f g g f d g g g g d g g g g g g f g f f f f g f g g g g g f g g d g g d g g f g g g g g f g f f f f g f g g g g g g d g g g g d f g                                             ;.                                                                                                                5.                                ",
"      > > * g g g g d g g g g g g g g g d g g g g g g g g g g g g g g g g g g g g g g d g g g g g g g g g g d g g g g g g g g g g g g g g g g g g g g d g g g g g g g g g d g g g g * > >             > > * g g g g d g g g g g g g g g g d g g g g * > >                                                                       g g g f d d g f d g g g g d g g g f g g g g f g d g d g d f g d g f d d g f g g g g d d g g d g g d g g d d g g g g f g d d f g g f d d g f g g g g d d g g d g g d g g d d g g g g f g d d f g d g f d g d g d g f g g g g f g g g g g g g g g g g g f g g d g g d g g f g g g g g g g g g g g g f g g g g f g d g d g d f g d                                                                                                                                                           ;.8.                                  ",
"      > * * g g g g g g g g g g g g g g g g g g g g g g g d g g g g g g g g g g g g d g d g g g g g g d g d g g g g g g g g g g g g d g g g g g g g g g g g g g g g g g g g g g g g * * >             > * f f d g g g g g g g g g g g g g g g g d f f * >                                                                       f f g f d d g f g g g g d d g g g f g g f f f g g g d g g g g g g g g g g g g g g g d g d g g g g g g d g d g g g g g g g g g g g g g g g g g g g g d g d g g g g g g d g d g g g g g g g g g g g g g g g d g g g f f f g g f g g g g g g g g g g g g f g g f g g f g g f g g g g g g g g g g g g f g g f f f g g g d g g g g g                                                                                                                                                                                                 ",
"    > * g d d f g g f f g g d d d g d d d g g f f g g f d d g g g g f g f f d g d g g g g d f g g f d g g g g d g d f f g f g g g g d d f g g f f g g d d d g d d d g g f f g g f d d g * >         > * g g d g d g f f g g d d d d g g f f g d g d g g * >                                                                     g f g g g g g g g g g g d g g g g g g g g g g g g d g d g d f g g g f g f f d g d g g g g d f g g f d g g g g d g d f f g f g g g g f g f f d g d g g g g d f g g f d g g g g d g d f f g f g g g f d g d g d g g g g g g g g g f g g f g f g g g g g g g g d d d d g g g g g g g g f g f g g f g g g g g g g g g d g d g d f g                                                                                                                                                                                                 ",
"    > O * d d g g g g f g d d g g g g g d d g f g g g g d d g g g g g f g g d g g g g g d g d g g d g d g g g g g d g g f g g g g g d d g g g g f g d d g g g g g d d g f g g g g d d * O >         > O * g g g g g g f g d d g g d d g f g g g g g g * O >                                                                     g g g g f g f f d g d g g g g f g f g g f f g g g d g d g d f g g g g f g g d g g g g g d g d g g d g d g g g g g d g g f g g g g g g f g g d g g g g g d g d g g d g d g g g g g d g g f g g g g f d g d g d g g g f f g g f g f g g f g f f g d g d g g g d g g d g g g d g d g f f g f g g f g f g g f f g g g d g d g d f g                                                                                                                                                                                                 ",
"    > > O g g g g g g g g g g g d g d g g g g g g g g g g g g g g g g d g g g g g g d d g g g g g g g g d d g g g g g g d g g g g g g g g g g g g g g g g d g d g g g g g g g g g g g O > >         > > O g g g g g g g g g g g g g g g g g g g g g g O > >                                                                     g g g g g f g g d g d g f f g f g g g g g f g d g d g g g g d f g g g d g g g g g g d d g g g g g g g g d d g g g g g g d g g g g g g d g g g g g g d d g g g g g g g g d d g g g g g g d g g g f d g g g g d g d g f g g g g g f g f f g g g g d g d f d d g g g g d d f d g d g g g g f f g f g g g g g f g d g d g g g g d f                                                                                                                                                                                                 ",
"    > * g * g g g g g d g g g d f g f d g g d d g g g g g g f g g g g g g d d g g g g f d d d f f d d d f g g g g d d g g g g g g f g g g g g g d d g g d f g f d g g g d g g g g g * g * >         > * g g g g g g g g g g g d d g g g g g g g g g g g * >                                                                     g g g g g d g g g g g g g f g f g g g g g g g g g d d g g g g f g g g g g d d g g g g f d d d f f d d d f g g g g d d g g g g g g g g g g d d g g g g f d d d f f d d d f g g g g d d g g g g g f g g g g d d g g g g g g g g g g g g g g g d g g g g g d d g g g g d d g g g g g d g g g g g g g g g g g g g g g d d g g g g f                                                                                                                                                                                                 ",
"    > * g * g g g g g g d g g f g g g f g g g g g g g g g g g g g d g g g d d g g g d d f d f f f f d f d d g g g d d g g g d g g g g g g g g g g g g g f g g g f g g d g g g g g g * g * >         > * g g g g g g g f g g g f f g g g f g g g g g g g * >                                                                     g g g g g d g d g g g g g g g g g g g g g d d g d g d g g g g g g d g g g d d g g g d d f d f f f f d f d d g g g d d g g g d g g d g g g d d g g g d d f d f f f f d f d d g g g d d g g g d g g g g g g d g d g d d g g g g g d d d g g g g g d g d f d d g g g g d d f d g d g g g g g d d d g g g g g d d g d g d g g g g g                                                                                                                                                                                                 ",
"    > O g g g g g g g d f g f g g * d g f g d d g g g g g g g d g d d g g g g g d * d d g f f f f f f g d d * d g g g g g d d g d g g g g g g g d d g f g d * g g f g f d g g g g g g g O >         > O g g g g g g d d g g f g g f g g d d g g g g g g O >                                                                     f d g d g g g g g g g g g g g g g g g g g g g g g g g g d g d f g d d g g g g g d * d d g f f f f f f g d d * d g g g g g d d g g d d g g g g g d * d d g f f f f f f g d d * d g g g g g d d g f d g d g g g g g g g g g g g g d g g g d d d d g g g f g g g g g g g g f g g g d d d d g g g d g g g g g g g g g g g g d g d f                                                                                                                                                                                                 ",
"    O > * g g g g g g g f * g * O * * * g * f g g g g g g g O O g * g g g g g g * > * * d g g O O g g d * * > * g g g g g g * g O O g g g g g g g f * g * * * O * g * f g g g g g g g * > O         O > * g g * * g d d * * g * * g * * d d g * * g g * > O                                                                     g d g g g g g d g g g g g f g f g g g g g d d g d g g g g g d g g * g g g g g g * > * * d g g O O g g d * * > * g g g g g g * g g * g g g g g g * > * * d g g O O g g d * * > * g g g g g g * g g d g g g g g d g d d g g g g g g g d d g g g d d g g d d d g g g g d d d g g d d g g g d d g g g g g g g d d g d g g g g g d g                                                                                                                                                                                                 ",
"      > > * g g g O * g * > * > > O > > O > * g g * * * * * > > O > * * g g g > O > > > * O * > > * O * > > > O > g g g * * > O > > * * * * * g g * > O > > O > > * > * g * O g g g * > >             > > * g g g O * g * > * > > * > * g * O g g g * > >                                                                       * * g d g d f f g g g g d d g f f f f f g g f g f f d g d g * * O > * * g g g > O > > > * O * > > * O * > > > O > g g g * * > O O > * * g g g > O > > > * O * > > * O * > > > O > g g g * * > O * * g d g d f f g f g g f f f f g g g g d d g g g g g g g g * O O * g g g g g g g g d d g g g g f f f f g g f g f f d g d g * *                                                                                                                                                                                                 ",
"        > > O * * > O * > > >           O > > * O O > > > > O > > O > > * * O O         > > O > > O > >         O O * * > > O > > O > > > > O O * > > O           > > > * O > * * O > >                 > > O * * > O * > > >     > > > * O > * * O > >                                                                         O O * g g d g d g g d g d d d g g g g g g g d d d g d g g * O O > O > > * * O O         > > O > > O > >         O O * * > > O > > O > > * * O O         > > O > > O > >         O O * * > > O > O O * g g d g d d d g g g g g g g g d g g g g g g d g d g * O > > O * g d g d g g g g g g d g g g g g g g g d d d g d g g * O O                                                                                                                                                                                                 ",
"          O > > > > > >                     > > > O > >             > > > > >                                     > > > > >             > > O > > >                     > > > > > > O                     O > > > > > >                 > > > > > > O                                                                               O * g d g d g f f g g g g f g g g g g g d d d g d g * O         > > > > >                                     > > > > >         > > > > >                                     > > > > >         O * g d g d d d g g g g g g g d f g d d g g g g g g * O         O * g g g g g g d d g f d g g g g g g g d d d g d g * O                                                                                                                                                                                                     ",
"                                                                                                                                                                                                                                                                                                                                      O * g g g g g g g g g g g d d d f d d g g g g g * O                                                                                                                                             O * g g g g g d d f d d d f f g g f f d g g d d * O             O * d d g g d f f g g f f d d d f d d g g g g g * O                                                                                                                                                                                                       ",
"                                                                                                                                                                                                                                                                                                                                      > O g g g g g g g g d g f g g g g d g g g g g g O >                                                                                                                                             > O g g g g g g d g g g g g g d g g g f f g f g * O             O * g f g f f g g g d g g g g g g d g g g g g g O >                                                                                                                                                                                                       "
};
