/* XPM */
static char *_cdc6efb1e67431382230e3877c9b4a9oMSQu3acazjLeFAD[] = {
/* columns rows colors chars-per-pixel */
"64 64 256 2 ",
"   c #47704C",
".  c None",
"X  c #452F1F",
"o  c #4C3723",
"O  c #483221",
"+  c #766246",
"@  c #C3B089",
"#  c #FAE8DD",
"$  c #4C3628",
"%  c #4C382A",
"&  c #FFE5E5",
"*  c #523C2E",
"=  c #483423",
"-  c #9A8662",
";  c #4A3628",
":  c #503A2E",
">  c #917D55",
",  c #4E3B2B",
"<  c #4F392A",
"1  c #463024",
"2  c #E0CAA0",
"3  c #D1B892",
"4  c #836E52",
"5  c #BA9878",
"6  c #AA9772",
"7  c #574133",
"8  c #553F28",
"9  c #57422E",
"0  c #756344",
"q  c #553F2E",
"w  c #76604A",
"e  c #B1A078",
"r  c #5B4633",
"t  c #5D4A34",
"y  c #523D2B",
"u  c #C8B58B",
"i  c #665140",
"p  c #BAA67E",
"a  c #412C1C",
"s  c #4A3419",
"d  c #6F593A",
"f  c #7B6544",
"g  c #69533B",
"h  c #6C5536",
"j  c #AC9A71",
"k  c #8D7D58",
"l  c #95805D",
"z  c #C6B38C",
"x  c #4C3720",
"c  c #68533D",
"v  c #4E3730",
"b  c #745F3D",
"n  c #75603F",
"m  c #8E7B5C",
"M  c #6A5632",
"N  c #B09977",
"B  c #54402C",
"V  c #513B1F",
"C  c #725D40",
"Z  c #BCA684",
"A  c #422E15",
"S  c #A79375",
"D  c #7E694D",
"F  c #968361",
"G  c #7C6444",
"H  c #493418",
"J  c #533C22",
"K  c #776345",
"L  c #4C3423",
"P  c #7A6542",
"I  c #6F5833",
"U  c #867250",
"Y  c #AD987B",
"T  c #7B6550",
"R  c #A38E68",
"E  c #AB9677",
"W  c #685133",
"Q  c #816D54",
"!  c #BAA27A",
"~  c #3E2B1A",
"^  c #A79377",
"/  c #9C856A",
"(  c #897452",
")  c #9F8971",
"_  c #AC987E",
"`  c #694F30",
"'  c #4E3A20",
"]  c #5A442A",
"[  c #49331D",
"{  c #543D22",
"}  c #635132",
"|  c #473019",
" . c #56442E",
".. c #8A7154",
"X. c #7F6748",
"o. c #584224",
"O. c #573D1E",
"+. c #6C573D",
"@. c #5C4727",
"#. c #A68D6C",
"$. c #7A6344",
"%. c #553E21",
"&. c #5C452D",
"*. c #4B3414",
"=. c #836C49",
"-. c #7B654A",
";. c #6E5737",
":. c #6E5938",
">. c #B29D77",
",. c #725D3F",
"<. c #6C5636",
"1. c #948160",
"2. c #766349",
"3. c #6D5740",
"4. c #493418",
"5. c #856F50",
"6. c #8A7660",
"7. c #766246",
"8. c #442C17",
"9. c #4E3B28",
"0. c #897558",
"q. c #574123",
"w. c #584328",
"e. c #553F21",
"r. c #9E8B6F",
"t. c #BAA779",
"y. c #7A674D",
"u. c #5F4B31",
"i. c #5B482F",
"p. c #6C5648",
"a. c #917B60",
"s. c #735E49",
"d. c #7E684F",
"f. c #6C5838",
"g. c #B09B71",
"h. c #A38A68",
"j. c #523D24",
"k. c #887351",
"l. c #7F6C4E",
"z. c #4E371E",
"x. c #9F8B71",
"c. c #AC966F",
"v. c #887359",
"b. c #5A433A",
"n. c #65502B",
"m. c #7F6A45",
"M. c #9B855C",
"N. c #8F7B57",
"B. c #8F7E64",
"V. c #71593D",
"C. c #83705C",
"Z. c #746148",
"A. c #5F4722",
"S. c #664F38",
"D. c #614C32",
"F. c #634D39",
"G. c #5F4B2B",
"H. c #6A5233",
"J. c #5E4A32",
"K. c #725E46",
"L. c #5B472A",
"P. c #5B452C",
"I. c #8A7752",
"U. c #453018",
"Y. c #452C0E",
"T. c #62503B",
"R. c #B59F80",
"E. c #937D5C",
"W. c #715E40",
"Q. c #AB9475",
"!. c #A49167",
"~. c #78664A",
"^. c #594530",
"/. c #8E785F",
"(. c #AB956D",
"). c #79674D",
"_. c #8D7B63",
"`. c #BFAA7F",
"'. c #907D68",
"]. c #6F5A3C",
"[. c #86735A",
"{. c #B29C81",
"}. c #A7916D",
"|. c #B6A286",
" X c #715F46",
".X c #75603E",
"XX c #88764D",
"oX c #8C765E",
"OX c #857257",
"+X c #927B64",
"@X c #86705B",
"#X c #9E8A67",
"$X c #8F7B64",
"%X c #9C855D",
"&X c #8B775E",
"*X c #927D65",
"=X c #79654C",
"-X c #88745F",
";X c #AB9677",
":X c #A18965",
">X c #B39F81",
",X c #6F5A3A",
"<X c #A18C6E",
"1X c #998668",
"2X c #473222",
"3X c #50392D",
"4X c #9A855A",
"5X c #5A441E",
"6X c #4A3427",
"7X c #493224",
"8X c #483424",
"9X c #4B3624",
"0X c #4D3723",
"qX c #4C3726",
"wX c #4F3A29",
"eX c #4E382A",
"rX c #433020",
"tX c #483520",
"yX c #442F1C",
"uX c #4A341E",
"iX c #47311E",
"pX c #453222",
"aX c #4A3521",
"sX c #523C22",
"dX c #4F3824",
"fX c #46311B",
"gX c #4D3A28",
"hX c #463020",
"jX c #66513C",
"kX c #4C341A",
"lX c #472F1E",
"zX c #483325",
"xX c #46331F",
"cX c #503B2A",
"vX c #4E381D",
"bX c #6C5741",
"nX c #7D684C",
"mX c #503920",
"MX c #4F3828",
"NX c #5E4938",
"BX c #49321A",
"VX c #7D6954",
"CX c #624D39",
"ZX c #715C45",
"AX c #4F3A26",
"SX c #8C775F",
"DX c #533D27",
"FX c #452F17",
"GX c #685138",
"HX c #412D1A",
"JX c #574229",
"KX c #412A13",
"LX c #715B3B",
"PX c #7A6544",
"IX c #644F31",
"UX c #968166",
/* pixels */
"                                                                                                                                ",
"                                                                                                                                ",
"                                                                                                                                ",
"                                                                                                                                ",
"                                                                                                                                ",
"                                                                                                                                ",
"                                                                                                                                ",
"                                                                                                                                ",
"                                                                                                                                ",
"                                                                                                                                ",
"                                                                                                                                ",
"                                    j e                                                     2                                   ",
"                                  P e.G p                                                 p 4XR #                               ",
"                                D z.8.c ( t.                                            h.b n n M.2                             ",
"                              f.x 6Xv 2XW F                                           c.W KXZX) nXN.3                           ",
"                          2 +.8 yXv v 3Xv.M.                                      & 3 I KX$ $ i ) PX( u                         ",
"                        e 3.dXaXzXpXX c 1XN.3                                       u ,XvXxX= a jX^ n m.@                       ",
"                      6 h uX0XgX% zX= 9.Q <Xr.e                                     @ K uX= , y ~ t / n b p                     ",
"                      d 8.0X$ . zX: ; ~ o Q >XR e                                 >.G sXo qXo yX< O jXUXLXb !                   ",
"                      0 A uXcX= ; , rX; pXtX=XY }.e                             N ].vXaXcX= O fX; % a i ^ IXn.e                 ",
"                        ` | mXBXfXaXcX, rXpXxX XY c.j &                       h.g BXcXqXqXAX8 9 $ < X 9 _ PX5X6                 ",
"                          ` ' L.e.mXdX< ; $ y HXu.|.Z >.#                   E.W dX= = . rXr /.7.9 iXyXbXUXl.k                   ",
"                                > s FXr 7 pXo aXFXu.S z j &             & U J uXX = % pXNX_.0.F C H A j.U 2                     ",
"                                  > s KXi NXiXdXo fXi.S z e           3 =.sXdX: < 7 pXr '.).k - 5 5 -                           ",
"                                    - Y.kXZX9 pXAXAXhXB r.@ 6       @ -.sX9X< O pXtXjXa.D                                       ",
"                                      # *.V ZXCXX $ $ hXB F @ j # ! b sX= < = X gXt [.4                                         ",
"                                        # *.V w NXX $ y tX .B.Z 1.K FX9X$ $ zX8XbX6.0                                           ",
"                                          # { J VX7 zX; gXtX .C.J.uXO : % zXxXjX6.+                                             ",
"                                            & O.8 w y X gX; 8X8XcX= zX, pX8XT.l.+                                               ",
"                                              # O.o.GXo < < X $ q $ $ ; pXc 2.k                                                 ",
"                                                # A.%.t X X q o O = < AXc 2.+                                                   ",
"                                                    ;.BXMX< L AXo o AXAX3.l                                                     ",
"                                                  # $.fXwX; < cXcXo yXx -X*X6                                                   ",
"                                                3 =.V O zX% < < 9XfX8 v.@Xi.5.3                                                 ",
"                                              u G kXaX$ < % $ O ; 7 $X&XJ uXK 1.t.                                              ",
"                                            t.m.sXlXq * 1 O $ o 1 i s.8 yXo o Q Y p                                             ",
"                                          @ f vX$ eX6X; zXy jXDX7XeXiXX < $ a qXd.E z                                           ",
"                                      & u f sXfX1 : $ $ ^.bXg C w.uXaXqX: v 7 < iXw E p                                         ",
"                                      @ f mX= : : zX, 9 y.7.D # 6 } BXAXb.b.1 pX< 9Xw E !                                       ",
"                                    @ f mXaX$ * ; X t VX~.m       # f.x $ p.r iXL y qXy.;XZ                                     ",
"                                  N V.dX$ $ qXX eXp.nXW.4             d z.JXT i MXa = 9XT {.R 5                                 ",
"                                #.I kX$ 6X; gXdXCXnX-.l                 :.4.JXVXCXo = = tXw Q.(.@                               ",
"                              m H.kXo $ ; . o ZX,.$.k                     0 H IXSXi = gX. O T R.!.`.z u                         ",
"                            I.G.uXaX* ; % , bXg P                           + q.GXSXCX= ; zXO T ^ #X:X%Xg.#                     ",
"                      2 N 5.o.tX. * % pX9.bXD.4                               + w.LXOXr ; ; 1 yXVX) SX/ k.S &                   ",
"                    ..] &.sXHX; * $ ~ t Z.h 0                                   k n.PXSXy 1 * qX= q L T ^ k.g.#                 ",
"                & ..P.yXrX; zX$ zXzXNXK.<.+                                       6 h LXs.MXzX9XO < $ a ) _ I l                 ",
"                # @.fX, % : $ $ $ 7 g +.-                                           > h GX9 O gX< 7XMXq x.x.<.>                 ",
"                  M 4.MX: $ MXo lXF.m &                                               l %.q * : 1 zXy +Xa..X-                   ",
"                    M [ lXO O * cXB 4                                               & #.&.aXy . X 9 oX( P                       ",
"                      0 j.0XcX% zX9X' 5                                             # C 0XzXpXo dXd.0.XX                        ",
"                        > s qX6X; 8XA +                                             5 q.iX< X sX,.U -                           ",
"                          > s 8XwXxX{ &                                               S.| hX0XJX;.5                             ",
"                            + [ dX] 0                                                   d U.x @.-                               ",
"                              :.H } 5                                                     M d -                                 ",
"                                4 4                                                                                             ",
"                                                                                                                                ",
"                                                                                                                                ",
"                                                                                                                                ",
"                                                                                                                                ",
"                                                                                                                                ",
"                                                                                                                                ",
"                                                                                                                                ",
"                                                                                                                                "
};
