/* XPM */
static char *background[] = {
/* columns rows colors chars-per-pixel */
"24 24 1 2 ",
"SS c burlywood",
"XX c Aqua",
/* pixels */
"SSSSSSSSSSSSSSSSSSSSSSSSSSSSSSSSSSSSSSSSSSSSSSSS"
"SSSSSSSSSSSSSSSSSSSSSSSSSSSSSSSSSSSSSSSSSSSSSSSS"
"SSSSSSSSSSSSSSSSSSSSSSSSSSSSSSSSSSSSSSSSSSSSSSSS"
"SSSSSSSSSSSSSSSSSSSSSSSSSSSSSSSSSSSSSSSSSSSSSSSS"
"SSSSSSSSXXXXXXSSSSSSSSSSSSSSSSSSSSSSXXXXXXSSSSSS"
"SSSSSSSSXXXXXXXXSSSSSSSSSSSSSSSSSSXXXXXXXXSSSSSS"
"SSSSSSSSSSXXXXXXXXSSSSSSSSSSSSSSXXXXXXXXSSSSSSSS"
"SSSSSSSSSSSSXXXXXXSSSSSSSSSSSSSSXXXXXXSSSSSSSSSS"
"SSSSSSSSSSSSSSXXXXXXSSSSSSSSSSXXXXXXSSSSSSSSSSSS"
"SSSSSSSSSSSSSSXXXXXXSSSSSSSSSSXXXXXXSSSSSSSSSSSS"
"SSSSSSSSSSSSSSSSXXXXXXXXXXXXXXXXXXSSSSSSSSSSSSSS"
"SSSSSSSSSSSSSSSSSSXXXXXXXXXXXXXXSSSSSSSSSSSSSSSS"
"SSSSSSSSSSSSSSSSSSXXXXXXXXXXXXXXSSSSSSSSSSSSSSSS"
"SSSSSSSSSSSSSSSSXXXXXXXXXXXXXXXXXXSSSSSSSSSSSSSS"
"SSSSSSSSSSSSSSXXXXXXSSSSSSSSSSXXXXXXSSSSSSSSSSSS"
"SSSSSSSSSSSSSSXXXXXXSSSSSSSSSSXXXXXXSSSSSSSSSSSS"
"SSSSSSSSSSSSXXXXXXSSSSSSSSSSSSSSXXXXXXSSSSSSSSSS"
"SSSSSSSSSSXXXXXXXXSSSSSSSSSSSSSSXXXXXXXXSSSSSSSS"
"SSSSSSSSXXXXXXXXSSSSSSSSSSSSSSSSSSXXXXXXXXSSSSSS"
"SSSSSSSSXXXXXXSSSSSSSSSSSSSSSSSSSSSSXXXXXXSSSSSS"
"SSSSSSSSSSSSSSSSSSSSSSSSSSSSSSSSSSSSSSSSSSSSSSSS"
"SSSSSSSSSSSSSSSSSSSSSSSSSSSSSSSSSSSSSSSSSSSSSSSS"
"SSSSSSSSSSSSSSSSSSSSSSSSSSSSSSSSSSSSSSSSSSSSSSSS"
"SSSSSSSSSSSSSSSSSSSSSSSSSSSSSSSSSSSSSSSSSSSSSSSS"
};
